mesha0703/panda-arm-visualization/trajectories.csv
time;joint_1;joint_2;joint_3;joint_4;joint_5;joint_6;joint_7;x;y;z;alpha;beta;gamma

0.04711461067199707;0.0;0.0;0.0;0.0;0.0;0.0;0.0;0.5965198972543166;0.0008358816021932179;0.5836448904374214;0.0002562587845628786;0.00447405537141594;-1.9706718063310283e-05
0.13264870643615723;-9.336684221317171e-07;0.005814983705184851;-9.930436513094776e-07;-1.5743004005718642;0.00010165871580580799;1.5716693343490427;-1.9728264248897176e-06;0.597186510200623;0.0008437949161217404;0.5809824705209339;0.00030867392380252686;0.008728687814106526;-2.1349613800873563e-05
0.20526671409606934;-3.232119637797126e-05;-0.00453071070131239;-3.0418796713060914e-05;-1.6326966347723526;9.123252195530895e-05;1.6386488225260414;-8.883254389857598e-05;0.5972630886268574;0.0007785642395531431;0.5561312191259812;0.0003082135974856638;0.008723555724860258;-5.4979461764533975e-05
0.27860069274902344;-0.00017723579934303402;-0.019103520835810794;-0.00013641633090610839;-1.8615729364427178;5.3475216036602546e-05;1.8363693395994365;-0.00040390607903573184;0.597297831209192;0.000611765017492936;0.4619472146420518;0.0002543725805000466;0.008387744219273494;-5.287126947191463e-05
0.3683812618255615;-0.0004008034177260811;0.05523138983518461;-0.00034933097439449057;-2.0997863404636945;7.64719154222604e-06;2.1704349649492465;-0.000864147601528753;0.5976980457369332;0.0004575189790514077;0.3235540871593166;0.00016424522161360153;0.007401089640454254;0.00014545069795663025
0.45625853538513184;-0.00015120091126918922;0.34312134623136537;-0.0012241011870819385;-2.1942043037807277;0.0005766313880704033;2.555127424897185;-0.0017301580585953324;0.5985641154318813;0.00032410138345764723;0.17608821412513365;0.00017580174112106744;0.006062540818002458;0.00029859551219864203
0.5289981365203857;4.71997458642015e-05;0.45028799372701345;-0.0014914670108776562;-2.1844662506117993;0.0010079123980824;2.632130898170125;-0.0021496707290271644;0.5988785437764175;0.0002366138958415753;0.13800543782502073;0.00013717136362498077;0.004938762469710575;0.00025886366738596384
0.6177089214324951;0.00011884937630046721;0.45974712137868545;-0.0015660537086295;-2.1839448898755762;0.0011344092547624918;2.636489955059226;-0.0022060795638529918;0.5977939914208172;0.00023406436561990778;0.13250776236894135;0.00016483953435424354;0.009503809492197627;0.0002099694616934566
0.6920211315155029;0.0002129891595643585;0.5301379533039308;-0.0017430155536177772;-2.1645186644443504;0.001600864502595556;2.703400004306986;-0.0025786740985123124;0.5980431122377946;0.00020571468691448917;0.09192023289698344;0.0001798085693440592;0.007846670529354493;0.00018878189017822031
0.7680108547210693;0.00018828207180687784;0.6663716402657109;-0.001804661119217954;-2.1233781942476067;0.0022503004320046927;2.7843123237251453;-0.0031336456539787783;0.5983947754208783;0.00011579388262489478;0.049400154242224964;0.0001279767096356589;0.005497370006687613;8.253968452378671e-05
0.8422491550445557;0.00021689079932540878;0.6831729650638279;-0.0018443710540956282;-2.1163804535716055;0.002415938651151972;2.79478021328491;-0.0032271389541183026;0.598471627656942;8.710731752681068e-05;0.04564084298437007;9.442937138278669e-05;0.005001901539755065;5.186187807032927e-05
0.9275429248809814;0.0002494735508928869;0.6831359040668659;-0.0018903926515170255;-2.1203607217441536;0.0024845758730536183;2.786915770264242;-0.003238720930157424;0.5970149661999018;6.637193927609628e-05;0.048458151130621865;7.706680002311752e-05;0.009398465768565943;-2.9025035137884136e-05
1.0247015953063965;0.00038161694964067294;0.5927589489695286;-0.002126818119958074;-2.151971290108187;0.002181376141179747;2.725502872607114;-0.0029809911311184933;0.5977486697790338;-3.634133158460358e-05;0.08747412075257538;-2.459403897639695e-05;0.006663902559962777;-0.00013741291233642148
1.0984630584716797;0.00043399180772007995;0.4659243061540481;-0.0023694365978474963;-2.1830292400999705;0.0015281306258998484;2.6396047813497425;-0.002608317924913006;0.5988382991223526;-9.195096616027787e-05;0.13640600757348326;-3.2126277090387274e-05;0.004663935522985127;-0.00017665142532513308
1.1891827583312988;0.000511466186962739;0.4576131087839035;-0.0023003530972061093;-2.1857606490908816;0.0012872710576274926;2.6349076492552426;-0.003170445121552845;0.597026599580664;0.0002824615194749291;0.13549112234507404;-3.979171977375908e-07;0.009512455116151019;0.0026645813450219082
1.275028944015503;0.007493822936955219;0.42240537923830823;0.005892192572729993;-2.266998807483751;-0.008174846558544946;2.66958671505986;-0.01914952771250711;0.5751162617764772;0.011277529600974686;0.13629924338524865;-0.00020810118682031668;0.009123638076899528;0.05657391568942351
1.3512465953826904;0.03890574829979032;0.26811801590341044;0.050225218234556834;-2.514563379156134;-0.04233895965146761;2.7909522599527774;-0.06586105783104657;0.4733608110229443;0.061940629436649075;0.13992126055111587;-0.0010334386156214165;0.007657545527939305;0.24476423771895922
1.434922218322754;0.14323570889091153;0.007188033179809317;0.20439832218545684;-2.9249049612462725;-0.012577250851228516;2.9260388341336734;-0.11532297442155492;0.3295180884425008;0.13262317505668844;0.14434255668901366;-0.0035424354176330857;0.004935232511825463;0.528189431655131
1.5286223888397217;0.1845916969236434;-0.17705527887529904;0.5173634551729211;-3.0711075395849665;0.534034500389879;2.8686732445479164;-0.5044063456234316;0.264827215482977;0.17046893788954595;0.1719319189633446;0.024851602733016998;-0.018320778244731176;0.7173096530236934
1.656785249710083;0.5228671491753589;-0.3524437082299978;1.2607717572087536;-3.049791175782956;1.0496281713636488;2.752397589760828;-0.25649090583459344;0.04497738453557016;0.2751939060518081;0.1530061043775765;-0.0013190936993471443;0.002058003522448568;1.086574955830954
1.7344789505004883;0.43238850113093985;-0.32207704752483934;1.6544388472666558;-2.7966268683929005;0.8592942706576316;2.6904579417781442;-0.019076283008102823;-0.09162018588905811;0.3439637514143483;0.1567531529591989;-0.003009071069454304;-0.00044420698175204993;1.383100074520648
1.8226597309112549;0.1788332630329048;-0.45913345705796127;2.0176225110284207;-2.518889744060904;0.8443522287536744;2.562610581047363;-0.04080177660342521;-0.18306736809264207;0.39080248536573353;0.15846814757494226;-0.0018545431552354052;-0.002260327299235763;1.5464910168112171
1.925065040588379;0.13860905823994685;-0.5075594016540332;2.0708029123579133;-2.451395703661918;0.8438303962382716;2.53603212636218;-0.048530344083602905;-0.19967905700817207;0.3993247108640426;0.15884152934416038;-0.0017486761575866462;-0.00248451916387768;1.5707546613587862
2.0035758018493652;0.13436191117401242;-0.5143000293667144;2.0763503817284645;-2.450636388556237;0.8555725951937068;2.538207862258563;-0.05630013000605594;-0.19913020264359366;0.3991618069142721;0.15534751997582089;-0.002374903815636995;-0.004913277012959053;1.5705717036296123
2.079348087310791;0.02236397573840998;-0.5900661529444551;2.2405002832014658;-2.411520178107124;0.9973315558160154;2.5919441801030514;-0.16729444866105103;-0.19907223048499567;0.40053216897132504;0.10948397478120345;0.0021949592144483478;-0.0014513346648371702;1.5694489981054336
2.16624116897583;-0.10690234047833336;-0.713056804719153;2.3827697329792814;-2.3516497525079942;1.146221028284443;2.628060215410892;-0.2526689119863379;-0.19897408774998734;0.3996018221555148;0.06808543394346751;-0.0011338058456752923;-0.0034423160845854046;1.5704866566696178
2.239912986755371;-0.11423625697632778;-0.7195769765630056;2.387658896036597;-2.3498276060403134;1.1507831526635153;2.628115337594489;-0.25556905248810047;-0.19826314741970716;0.39940885277074234;0.06636849702184949;-0.0017436869365685004;-0.005518854152708333;1.5702190127650808
2.309088706970215;-0.101678369336764;-0.7041982001008558;2.3631005075271476;-2.3620150337489276;1.128627230077437;2.6154064834954456;-0.23199336089398725;-0.19801320462966132;0.39936510289556587;0.07846922255209603;-0.001775143399283386;-0.005838232670804102;1.5700006527613615
2.407226324081421;0.012874488084001268;-0.5912986544790164;2.202742505162723;-2.4273842118026536;0.9518708510516882;2.5633323474998573;-0.10687843225569038;-0.19879508528748613;0.3996901360484053;0.13703448191015427;-0.0010386124779609394;-0.0033677664185331273;1.57002048229064
2.507526397705078;0.1385283515450002;-0.5224590718833397;2.0720735982898324;-2.447912071878604;0.8648620038011297;2.532497761700971;-0.06004578386473236;-0.1992376555595347;0.3998337805357441;0.15799253999977644;-0.0006836389451173738;-0.0024970853938734144;1.5703034977467105
2.5785374641418457;0.14929412253471774;-0.5181795038147632;2.059249892292347;-2.4495542650760695;0.8571590402479723;2.5282559777997524;-0.05770750539183922;-0.19927093100122206;0.3998102771904788;0.1593039084593283;-0.0007327686776465029;-0.002502512339065412;1.5703385195723496

2.670107364654541;0.14931159124102145;-0.5181800471040305;2.059230272449205;-2.4495560407310295;0.8571580118844975;2.528252900325115;-0.05770668511451982;-0.1988359876735369;0.39967425434271253;0.15890179900401907;-0.0010949826305613423;-0.0041208788141458815;1.5700736911567177
2.7843704223632812;0.15423379520970482;-0.5173788581099088;2.0502182814384105;-2.462920120331236;0.8603083699024836;2.5328924526693557;-0.057348277968718886;-0.19218903370346935;0.39643646436851415;0.15856501690924493;-0.0012825457819307356;-0.004926811589527881;1.5573167740247167
2.868253231048584;0.20666389212462688;-0.45429946999834403;1.9673451450685242;-2.580206859482396;0.8713652943273598;2.6013516559030254;-0.0471474368421525;-0.13610884852587787;0.3683698228089513;0.157262573442856;-0.0017820811519851621;-0.004045144130779664;1.4259853623379017
2.9574408531188965;0.4537095831091902;-0.32673178153723237;1.6074949731056876;-2.900009809091645;0.9267420711268555;2.7410541312851633;-0.10967408652764155;-0.009036293297903918;0.304301402527;0.15405361267398412;-0.001180452217549508;-0.0015050781567879866;1.1589978932642189
3.039158344268799;0.45613312216145063;-0.35672186862703636;1.2048701936329946;-3.0698312806619192;1.1011936481999234;2.7480688811391483;-0.429358860277258;0.13232439927510442;0.2426008612346246;0.15458281544873215;0.014978988750632267;-0.0029090756569852927;0.884659091302956
3.122666835784912;-0.44227159248622616;-0.14038399622808972;1.1603268727003;-2.9926206466822878;0.589199037401043;2.9107081872223297;-0.4058375652893411;0.3178443052624887;0.15227760795446493;0.14929604002753138;0.017498964665710208;-0.0008520476037837208;0.5330699042706135
3.1945321559906006;-0.5896151128219342;0.24230495391071472;0.692373627828963;-2.6301721188989236;-0.45420447661426966;2.764415896276498;0.22763787697407878;0.4743824593674223;0.0626120003488439;0.14223809131182868;0.001550484075726802;0.0044074850373961305;0.24016470453109157
3.2606711387634277;-0.5518623431536174;0.4200772104623729;0.5377830588625949;-2.316275558375731;-0.4725546457108205;2.6473935470797083;0.2931094853273688;0.5640576764165826;0.016278608291238165;0.13877717104200948;0.0006036989424619677;0.00414726625845372;0.06700527551421333
3.338122844696045;-0.5313077810282669;0.5110173480975373;0.5033931555635194;-2.1786100616303767;-0.46500600325218633;2.5832942864682464;0.3148231394921641;0.5976758228871524;-0.00031589136902347427;0.13765191638491364;0.0009086872617133036;0.0046073795449075375;0.0010177227860792368
3.4306764602661133;-0.5294368510144674;0.5263123995570878;0.5011131231108537;-2.1641810290648804;-0.4654460779377354;2.5788285581576584;0.3173941929655433;0.5981368032179386;-0.0005839386180580145;0.13514821188524262;0.002540600534374673;0.008589189144421494;-0.0015540261012092012
3.5039947032928467;-0.5083737889372011;0.5813957624357933;0.46428472712705204;-2.1493081648115764;-0.507215433744026;2.616192511922754;0.34602809824021286;0.5981813914125962;-0.00033206791688236654;0.11223772620189558;0.0024038248655654034;0.008002120077475342;-0.0010599548856297513
3.5694031715393066;-0.4493564800794756;0.6761154345496023;0.3988592416013894;-2.1132874713452003;-0.5701328298687605;2.678389806461672;0.39041155623337076;0.5983632406489658;0.00019005725796789427;0.07177186641180618;0.0019309230930317867;0.00599441351663226;-0.0001091443384078789
3.639530658721924;-0.4174629943124706;0.7385371084129124;0.35910830174958086;-2.083264976855842;-0.6055643407855289;2.715899706429171;0.4164486404076051;0.5986190473843915;0.0005705398822318966;0.04584767469860465;0.0016980968538662488;0.004547761152138158;0.00015471464222815395
3.7384002208709717;-0.41959080928342996;0.7393778386830814;0.3615559226186291;-2.0855999297135837;-0.60474678267685;2.7135224701092464;0.4148295719122119;0.5972549392391621;0.0010823720051200663;0.04654910134122077;0.0031129177227433693;0.008927681033640535;0.00029266502486658845
3.81437349319458;-0.4472370504046643;0.687250481198157;0.395838892288209;-2.1166215729134548;-0.5723160269377043;2.6742600321520626;0.38593846933961107;0.5978319332653113;0.0008709170029988765;0.08058694329928091;0.0023094132672518315;0.006868344866765513;0.0003091672689897753
3.8994626998901367;-0.509315486100022;0.5768270224303129;0.47465207697565015;-2.150746761718196;-0.5126317361390482;2.612557445984362;0.343833429519127;0.598637874393398;0.0005694587782554383;0.12115021386673262;0.0016156739530994101;0.004714821441281046;0.0002257245024441399
3.970710515975952;-0.5377178187313381;0.5294652800819799;0.5109998961049627;-2.1627482935336073;-0.47756315261989446;2.5786996765579753;0.3250895010935735;0.5990141215224605;0.00036980616534108796;0.1374487654578831;0.0014703929651624385;0.004102280403509591;9.965022901257434e-05
4.048433065414429;-0.5406431806269172;0.5296237664745025;0.5145169315096902;-2.164991227892138;-0.47612500779396827;2.576212241355795;0.3246956457625547;0.5973941761519923;0.001133941052865491;0.1360981359992125;0.0031881729016423354;0.008206627517938965;0.001645487899913825
4.131304502487183;-0.5532691603560949;0.4879253022429779;0.5357922308815644;-2.2408760823363125;-0.4862216378965294;2.6182617829517216;0.3043482006516425;0.5566763118935568;0.022792798977857374;0.13763720755601827;0.0026836398140602704;0.007770501306878675;0.08657176254456982
4.228765249252319;-0.595866215550851;0.277197070820006;0.6731607369088071;-2.5961468865309323;-0.48331326380648276;2.7693973844752753;0.23400035412126563;0.4663967634089047;0.07037922780270316;0.1407146315636921;0.0010693497189965665;0.006744809507408724;0.2748451350188015
4.300702333450317;-0.6838827607066764;0.03842664663302342;1.1332592409159732;-2.963224128355292;-0.05472483501691716;2.9583793007042107;-0.08118112422263879;0.32605066129049926;0.14317228534699997;0.13944778005339067;-0.01041912292765854;0.0009509562096421161;0.5866340054585275
4.365141868591309;-0.08599957333902708;-0.2344039519214136;1.0703801752079354;-3.07041249699461;0.8552560312409274;2.8380211316934423;-0.4513441468065569;0.22155147864078176;0.1960980709432814;0.15109924472599306;-0.013546670387026411;-0.00470256674921937;0.7278870841942527
4.435803651809692;0.45175892706866216;-0.3559208085640262;1.425242040386144;-2.9656431770995626;0.996629808751206;2.717124692711998;-0.2198383062957272;0.004443735082691423;0.3132443271020037;0.15513602809947813;-0.0016744732138781167;0.0013571927003129048;1.237183634982064
4.511506080627441;0.2561102584164052;-0.3963718473254092;1.832854452674746;-2.705586057753342;0.8901125449560388;2.6301567605804905;-0.14921036219022366;-0.09783476446818426;0.36803319569401516;0.15759887512265003;-0.0023526121671439875;-0.0010678261714979255;1.4706044150012505
4.598940134048462;0.16060822135488362;-0.4803374940568981;1.9854547999766803;-2.542084939625198;0.8802580162795994;2.558989698133338;-0.1598785644281855;-0.14957089150511604;0.39594603081006724;0.15878853744094426;-0.001973789042271371;-0.0019818134347568015;1.5599653669592795
4.673281192779541;0.1447782887840403;-0.49520599866379555;2.001638391639969;-2.5169263715939145;0.880825299091792;2.5493503805081654;-0.16303471430383976;-0.15496752026065477;0.39894426471757355;0.1585870304636811;-0.0023344497170787416;-0.0035008260436378935;1.5718060075745486
4.760671138763428;0.11132379291256189;-0.52328415027227;2.0625226288714;-2.5073117018749604;0.9296892240211143;2.5691595585065947;-0.20899759468227996;-0.15464721410968552;0.39884012854792317;0.140855222482687;-0.0027599385379763804;-0.00400688946324099;1.5712945875400992
4.849250555038452;-0.07763675959412142;-0.6536697695501781;2.295800153030245;-2.4390567567228985;1.1639160459738047;2.6243446596009323;-0.3670620032457501;-0.15427161667011974;0.3994354542232082;0.07786553131036666;-0.0015072256056317655;-0.0031215623726808884;1.5705766243871073
4.949144124984741;-0.144191466061232;-0.7090933842618954;2.3586321659796985;-2.407898188211663;1.2187353809663142;2.6333757276029512;-0.39317881452658643;-0.1540800223529652;0.39960823122575284;0.06717494911449552;-0.0010579074151692667;-0.0030697368849069034;1.570518466173704
5.038026809692383;-0.13635412233195643;-0.7004743734424705;2.3423378895213522;-2.416095427597242;1.2038630181978043;2.625773529991407;-0.37570625185408923;-0.15317069697076433;0.3993033621918207;0.07876959915527096;-0.0019234838413036458;-0.00556658221132008;1.570050717487354
5.14266037940979;-0.0272913214727315;-0.6087237666201357;2.1848419959642884;-2.4764761265586133;1.0470034898085396;2.583492307136321;-0.24142795748832446;-0.15377611264723387;0.3995844295179282;0.13088348361233332;-0.0012188223606774769;-0.00324510839207671;1.5699696375027852
5.243840217590332;0.13118125425918503;-0.5083902216774621;2.0063935004805016;-2.513648747135284;0.9007195846316343;2.546633213065055;-0.17380860186492075;-0.15430201001654076;0.39981824241168107;0.15814833030865805;-0.0006911471969787997;-0.002127940672419663;1.570316681640604

5.3572587966918945;0.15258225836817907;-0.5044832183412469;1.9916375716173977;-2.5154606310633882;0.8923172653150857;2.5422696156609668;-0.17119305390955786;-0.1543386638493617;0.39979354158869257;0.15946746164566766;-0.0007307126921470048;-0.002139183092017901;1.5703328508992942
5.447904109954834;0.15410400160431692;-0.5060510602415125;1.9881842396230516;-2.5199737013702856;0.8947613603503513;2.544317417646014;-0.17167981690191336;-0.1513065213627529;0.39829633256681274;0.1589519008366525;-0.001285093341452304;-0.0042336090275462415;1.5616522589802369
5.555016279220581;0.18627338637738422;-0.470371549809077;1.9313268465007924;-2.593167393982311;0.9048757041212827;2.5763781513102026;-0.1688755661768777;-0.12650647693615455;0.38520012500605844;0.1583664780294066;-0.0013724954315085843;-0.003963768489712784;1.5131523114042986
5.622813701629639;0.26310338477269424;-0.4170263187495262;1.8245437248370164;-2.7044105738008444;0.9232695626609004;2.6419938967564587;-0.17262800319506066;-0.06221565314520804;0.3509673800692967;0.15662680726345923;-0.0018399648620507502;-0.0028928061611721663;1.3526814650794976
5.718742370605469;0.43844090332205443;-0.3616504456769114;1.3821091670531702;-2.9925189772129768;1.047991699450308;2.7333044857392244;-0.37696648312394077;0.09899070739318931;0.26401748386084745;0.1529761989989291;-0.001446315919453266;-0.001123388603684623;0.9997315553163176
5.814623117446899;-0.10020736146005449;-0.2281407002224367;1.1197649299940027;-3.032929305416709;0.7481390560977141;2.879912734043403;-0.5039410418182939;0.2822022358615891;0.16836992310026044;0.14922467942912543;0.002123535981762304;-0.0012820453833768519;0.6729046728413778
5.896413803100586;-0.8461929365581669;0.0358810142532886;1.140773162689709;-2.8655411936353685;-0.10706943579624273;2.8452093852754654;0.07530137495151878;0.4026116823717647;0.11299043454425894;0.15292030476146123;0.07801313108025244;0.027196039359962596;0.2612214438056374
5.9916300773620605;-0.6040885964002713;0.30317259144445563;0.6344229011443199;-2.5084158587041747;-0.4965701882800917;2.728596572515942;0.26834912675530953;0.5089228393452634;0.04620349215202962;0.14072794301208158;4.8756533269190266e-05;0.003614061799264666;0.16153300534310658
6.0880560874938965;-0.572364229530407;0.44974444492937327;0.5614237056361246;-2.305750671206539;-0.49553115986693186;2.625893525640837;0.3136658988657812;0.5726123378586819;0.012842628127043294;0.13854946563531206;0.0007255149284751933;0.004235256530954138;0.053322681275738006
6.181154727935791;-0.5558709667313773;0.5232891950010496;0.527455769473129;-2.175807968791564;-0.4887625099758841;2.576977737074736;0.33059916446076887;0.5967379720075475;0.00022367867828464803;0.13769828884173566;0.0009416354411739299;0.004574563810625835;0.0010200539789321666
6.272964000701904;-0.5541554255016705;0.5314441910969734;0.5252655817203795;-2.162121449286122;-0.48887087626352876;2.5726277108165596;0.33293403187978;0.598227839363055;-0.0006015666961227332;0.13574096888679754;0.002496510783318592;0.00820664747315043;-0.0015645336779877518
6.3494343757629395;-0.5388993469978498;0.5636881855080178;0.5053445053916032;-2.1512505212240725;-0.5220095799475066;2.6003163631653403;0.3625275268127708;0.5981996242097022;-0.00031214596391466803;0.11227991324105963;0.0024911787069651467;0.007915990469518712;-0.0010501835068563628
6.431324243545532;-0.4715547080675515;0.697022870966221;0.4099464200620009;-2.1040830706736084;-0.6059244284836884;2.6871668130334214;0.4197813134130546;0.5984612384451777;0.00036711904910184895;0.060367507829075434;0.0019586658974401097;0.00564601116746303;-1.3817988104424208e-05
6.504985570907593;-0.43889054865099064;0.7447391180021987;0.3789875519098782;-2.0803204008526404;-0.6342199909087238;2.7075710606470222;0.4350416221248352;0.5986371724102982;0.0005911763464876936;0.04586562090312242;0.002768446229748605;0.007429733981709733;0.0002685372407933358
6.628376483917236;-0.4459525471390382;0.7369647894753153;0.38747084952378064;-2.0870316732699665;-0.629505323477292;2.7002146657787804;0.42903793963806436;0.5973696349908286;0.0010997549369269506;0.05204279945013761;0.0031193616926053777;0.008489620690053172;0.00030420973827767494
6.70002293586731;-0.4869878991725587;0.6466456926947313;0.4507839775548872;-2.1270754312378677;-0.5802930033240461;2.6464248823998715;0.38908004334980273;0.5981235915529322;0.000809131966686685;0.09500673974844047;0.0021240206685072933;0.006003086684365267;0.0003205879734588012
6.78536319732666;-0.5480827211651702;0.5603606714468512;0.5238716417659965;-2.1573729873693552;-0.507969382290697;2.577889673496782;0.3462688231285176;0.5989837176105604;0.00042911286066053746;0.13533729242154596;0.001527756934859909;0.004053834434915149;0.00013950962157064877
6.8711137771606445;-0.5654548436114748;0.5375703697724763;0.5389529102365476;-2.1621351680762597;-0.5003151207433945;2.5695059290610525;0.3408766940804484;0.5978700141302016;0.0009369159457394518;0.13619095524522518;0.003269027034065604;0.00798478495015519;0.000818443225613437
6.942331552505493;-0.5715489074219824;0.5220210385476354;0.5515385276342482;-2.2033358178992706;-0.5076321368865258;2.593181858803852;0.33179537385352953;0.5780207401425606;0.012201503220350325;0.13693824815750272;0.0030821119495553434;0.007883162427857216;0.04481230856307652
7.0232086181640625;-0.6149650705730938;0.3268349884998756;0.6718538440080986;-2.5682483169936576;-0.5160670261513385;2.750528741602942;0.24219597217644795;0.4601245869538819;0.07837537737634373;0.14121730704823277;0.001006135861873236;0.006523584562742903;0.30629888131981897
7.0935657024383545;-0.6213282544711967;-0.03574868633851569;1.3057758756321327;-3.022400334532776;0.2930795951573075;2.996545507951267;-0.3888785672175987;0.26524560243837386;0.18350575583906845;0.1363034780086529;-0.016131189066236083;-0.007668205666531555;0.7994450921522587
7.163028717041016;0.3241804271481672;-0.3473022806858652;1.5895074643715956;-2.866080110012348;0.9382748142819102;2.7048658137565336;-0.29067244280987703;0.011022876249632519;0.3297810402504167;0.15600274185210755;-0.0018056260599854206;0.0009500804259762863;1.3013498546691922
7.224441289901733;0.11994334143244378;-0.44739720218263423;1.941431325465465;-2.59044384852489;0.8770071140797926;2.5878667068792365;-0.2559425616766893;-0.10689472331886218;0.3971021334800631;0.15899098577287307;-0.0019416343023578421;-0.0016597991744759088;1.5641680791101933
7.295776128768921;0.08486644873109217;-0.47272835068039765;2.007003059871292;-2.5683705367332736;0.9132883506069849;2.588942077068345;-0.2822977543506844;-0.10986779971902029;0.3988509294992904;0.14624101617770208;-0.002779385791185826;-0.0034678957295429668;1.5715452385653006
7.366367340087891;-0.21561041472202103;-0.6753855941694518;2.355580037728334;-2.4613904083478744;1.247455441960624;2.658726903958027;-0.5153717048006015;-0.10917739819132084;0.39951042653562935;0.06836157854749805;-0.0013787930943534722;-0.002879849422115902;1.570562971611022
7.437706232070923;-0.17284211360746626;-0.6264516778323079;2.2825584466903086;-2.4938679269151107;1.1687768065377027;2.642032307056571;-0.44274079572267855;-0.10848150704303618;0.3992397355273532;0.09615890214358179;-0.0018987738098586904;-0.004033627035674408;1.569968902720658
7.512250900268555;0.11307524328816321;-0.4669861170262788;1.9523675121551536;-2.57372260426572;0.8860414976947499;2.57461540173954;-0.2642723521248125;-0.10940245200018787;0.3997623407329984;0.15953924150600918;-0.0008017031911704174;-0.0018294289277530945;1.570342720919359

7.591995716094971;0.11455567747720075;-0.4669807330751303;1.9517971423761589;-2.5737731928035297;0.8858988156114789;2.574410211055193;-0.26416390414516266;-0.10940185991726022;0.39976014482305466;0.15956349270900588;-0.0008073466124643167;-0.0018340799228237132;1.5703420924305236
7.655417203903198;0.13794721584407643;-0.45007164193326377;1.9148037832439373;-2.615958430328913;0.8952397002941854;2.598275706418275;-0.2631264530417887;-0.0832611723538438;0.38512972043106936;0.1585187092826686;-0.001506393813753497;-0.0033820986838000544;1.5131782595539702
7.739642381668091;0.30906708971818464;-0.3493233460672811;1.3890952522367295;-2.9836673870262898;1.0126275054412348;2.742506969080539;-0.43651830260003743;0.11060248740842074;0.27450631820102184;0.15353059013066545;-0.0013476859944380843;-0.0011920214701217824;1.0815567460723774
7.798586130142212;-0.9954696239798109;0.05497379864022767;1.1588521076408798;-2.754182738963509;-0.31288842548219975;2.8028806133459128;0.18454851138256156;0.42557265395533134;0.14290459320634702;0.16296297459900594;0.04088821096445983;-0.0024444562656698882;0.39974131060696766
7.880188465118408;-0.6336914121640991;0.5246873914870491;0.606476141268625;-2.209843604877682;-0.5592913243637576;2.5714986012184795;0.3692063653606712;0.5911623371405895;0.0034288889425476165;0.1379492163013235;0.0009893508283220652;0.004391650772113462;0.015839865798739798
7.952643156051636;-0.6222938070156729;0.5621393708617068;0.5919252343707826;-2.15446368993104;-0.563981152738708;2.5602853367912237;0.38536817823945935;0.5982093462835754;-0.0004448359598412428;0.13070353715384647;0.0029095455151185827;0.008194613118885188;-0.0014040265045844335
8.023240566253662;-0.5083548514002927;0.7557966496842443;0.44276591455649106;-2.074294305746393;-0.7106786534320455;2.6785480101829005;0.4844690613709437;0.5986551229078184;0.0006295879927518387;0.04688034992282873;0.002016489361955487;0.0045195453154255215;0.00016657100905478252
8.09463882446289;-0.518258342008127;0.7404562979879792;0.45888094192131224;-2.0927485612446004;-0.6938931604806227;2.6575976193447453;0.4713836709367252;0.5976140191690508;0.0011637976975593864;0.06151791105774876;0.003228412730198381;0.007618373974542845;0.00035896905277291895
8.162044525146484;-0.6337744332388615;0.5608434142172971;0.6075302014529651;-2.154624055485749;-0.5707911749369448;2.549312725416799;0.38706566261884445;0.599081980858831;0.00043151353901294356;0.13794460508630516;0.001707047307530737;0.0038887412271209425;0.0001467415809820213
8.230695486068726;-0.6482034848756664;0.5273321054601934;0.6316812742032996;-2.222843531746085;-0.5832943874279768;2.5847644517783377;0.37277833086065204;0.5683649141281435;0.01894379982334856;0.13758596803243506;0.003249543979865682;0.007366983710050753;0.07099797367130423
8.29913330078125;-0.7368539347550134;0.21188505822089088;0.923363554013573;-2.737225780694395;-0.54958820132078;2.8158876199891987;0.22053889822609696;0.3920561962782253;0.1242202706549572;0.14339155767524847;-0.00196925282878913;0.005195095191603857;0.5293181252448798
8.366579532623291;-0.7918298554618732;0.10689792767425921;2.201173479010171;-2.935162322713433;-0.2702097416070828;2.8738199829778592;0.43101762005885247;0.03567451529009545;0.33726814916926995;0.15742289769371628;-0.0007962903165677325;0.00032838528380487196;1.3311988329023745
8.43378758430481;-0.5228114878900048;-0.1447771185900959;2.4031393307968836;-2.6845042737323874;0.28077234670910967;2.7795092283823637;0.055767014670967896;-0.06328264933319377;0.39811808241024194;0.15917587374231246;-0.0020350967112061752;-0.0016188162200472486;1.5670151541418953
8.49942135810852;-0.6224364390393524;-0.2672151296499936;2.553734008964212;-2.641336411596879;0.5372611271311443;2.846522784387557;-0.13097166794505366;-0.06480916365167284;0.3989783201059052;0.12251541789003845;-0.0018927084972623774;-0.0020626400085685614;1.5709896663732346
8.571229696273804;-0.8523611958623576;-0.467971753210187;2.839762049039046;-2.5618940637946634;0.789874023567839;2.953035809456839;-0.3337746818968772;-0.06401625592894677;0.39861809677307414;0.06615747254289638;-0.0053051834715160725;-0.003822694558464011;1.570558827598313
8.64061450958252;-0.5878916518523609;-0.2431751430980773;2.5098998488730864;-2.6561183304270193;0.42341073004212904;2.8078503203848886;-0.022150517154406746;-0.06439400075680296;0.399288533589402;0.1471202003701113;-0.002501235484428314;-0.0017607051986061454;1.570393774175922

8.713847875595093;-0.5064358318989255;-0.15789289148479524;2.3940736822067983;-2.674855215733916;0.2982360554566692;2.7741785782174926;0.043770862286375944;-0.06458639300727405;0.3994811711268332;0.1591603915768796;-0.0020516248457106406;-0.0016639667720155294;1.570693934100987
8.778939485549927;-0.5030940874362826;-0.1321868180745227;2.347648993652837;-2.7260769418199375;0.25747278293350995;2.7984522269003413;0.07970139008997101;-0.045340996978782244;0.3877539653927401;0.15782326055406098;-0.0037592478673378125;-0.0029932129149300014;1.5136700893220407
8.844004154205322;-1.1923762096792236;0.2092631370422624;2.0128431273870104;-3.0188645706293693;-0.7632834662370054;2.856575063663425;0.5002282797988626;0.24964407072928363;0.20843516310680005;0.15001910689681477;-0.002601954761940571;-0.0007971747829923719;0.8258588769017458
8.916262149810791;-0.7970787325291382;0.3762242935914264;0.8324778153501682;-2.52360860743259;-0.6737058485015579;2.6741030349717163;0.3693394541599724;0.4968994188253905;0.06025794018410379;0.14159416035785094;-0.00017859446416902753;0.003303222869588226;0.24045848250319604
8.979236841201782;-0.7146835191858578;0.5864667944917388;0.6871331063538553;-2.158979505522357;-0.6503288352346797;2.5268998123925703;0.43546260116932967;0.5970731520107793;0.0007965287743052839;0.1379452800501691;0.0014096649746758551;0.00412062300730889;0.003945031745029449
9.03923487663269;-0.695879956494756;0.6359361552263989;0.6518634828416046;-2.1349263320543406;-0.6998789919842894;2.5526634471343073;0.46975662253648176;0.5983481741378984;0.0001860235345202165;0.11275296050380068;0.0031065828644905326;0.006943854019369849;-0.00034602291357459225
9.10898232460022;-0.5836776414259566;0.7980142095989016;0.5178785920782603;-2.059333204922968;-0.8201246111044731;2.639107358674579;0.5498863851093554;0.5987612771722921;0.0007156182972016165;0.04607288633256998;0.0022093593369572756;0.004067476900897836;0.0001828355161963382
9.178178787231445;-0.6486736951722447;0.705812882876363;0.5997848460863491;-2.114826457415679;-0.7442706732648237;2.5739390135926232;0.4993753844976099;0.5984367811531249;0.0009686159908833563;0.10246640861355077;0.0025376066282780554;0.00506146824045755;0.0004383828454497967
9.241960287094116;-0.7308835315204805;0.6028077298415866;0.7060584047131169;-2.15293862578442;-0.669480282908455;2.5183749396014576;0.4474073735989852;0.5950647196825959;0.003141453385817622;0.13675945581841564;0.003966858548788269;0.007074849186458188;0.013028955212417327
9.307189702987671;-0.8081093876040035;0.38905156696943477;0.8765987646569;-2.532920455525267;-0.7117866606094037;2.683278217400902;0.3678507020127011;0.4647709166509615;0.08709070888719038;0.14209536055083277;0.0014544325013131044;0.00560833109946873;0.3746153986612925
9.379451036453247;-0.9518721595907014;0.1792811015410689;1.9659317850697349;-2.967640216609248;-0.5383946819594203;2.8576363803001383;0.4473104010449811;0.11058190772960404;0.3138959823441418;0.1561591564308804;-0.0005243168165136228;0.0006881359213933024;1.2376922965326687
9.450397729873657;-0.38568256734755124;-0.16882805388810107;2.1844727693091155;-2.7006307093263784;0.39104456358744555;2.7721146290231786;-0.1299774460424601;-0.020026153012919306;0.3990773966767735;0.15938440395405706;-0.0018107567873544327;-0.0012397845746154057;1.5707789318687704
9.518072128295898;-0.48249826689584197;-0.26653114898784613;2.3578527247324317;-2.672908053495685;0.638739393521607;2.8154169500855692;-0.3439890205512999;-0.020082479711392022;0.3989003532651097;0.1228119941807166;-0.003105984554061629;-0.0020110485868906486;1.5713505683209132
9.585371971130371;-0.8022834473056517;-0.4904264156036495;2.717994886154064;-2.561968731893314;0.9857429211917443;2.9088190873455337;-0.5834394843485176;-0.018946870717099953;0.39846692869144756;0.06628885850984598;-0.004995082568299538;-0.003668735376707946;1.5705648122500564
9.649752855300903;-0.6044109158095949;-0.3344146902728147;2.4747795766960774;-2.646020864415201;0.6846953350029605;2.8234286904634747;-0.3444345460202465;-0.01926340376700261;0.3987986785973168;0.1234068578987382;-0.003462739748868189;-0.001938287261346836;1.570150675924696

9.716966152191162;-0.37899016107765693;-0.17605069109740734;2.181752058424622;-2.6971993728848327;0.4023629162674185;2.7702465434043297;-0.13794522914846707;-0.019588632666140252;0.39955654287222064;0.15936677269491506;-0.001686869124003812;-0.0013848803492314192;1.570576638881943
9.778870344161987;-0.36914399390459174;-0.1586880676930562;2.148243486339516;-2.723500178282986;0.3808579029292831;2.7839840010029064;-0.11209927040100087;-0.0057797688527936614;0.3905592138794797;0.1583145598232012;-0.0030592138675254953;-0.0026250201879275746;1.536212666411803
9.84345030784607;-0.8788824941384048;0.17673489355272576;1.8783472943301716;-2.975326251726;-0.7033135521430451;2.8515283535735065;0.5177799160264782;0.18827732223831065;0.2643008950599698;0.15184443793155145;-0.0018210562766957337;-0.0011014462616540837;1.042191215730409
9.911872625350952;-0.9119998022276574;0.27876842184028083;1.0274423803751178;-2.677465364721667;-0.7367814606905263;2.7233746554553675;0.37955979638693993;0.4533449550456796;0.09232434371851618;0.1435123956678501;-0.0010862689700533302;0.002969119722350877;0.3680177286888974
9.983971118927002;-0.7786645679650364;0.5879151333563852;0.7522151506498993;-2.187509822692055;-0.7123344817481452;2.5184909634464514;0.4637260019991216;0.5861321006850236;0.007720448350770742;0.1384074113399889;0.0013151847897600003;0.003950422194349328;0.031810174257827416
10.045100688934326;-0.7675369291958605;0.6254169082446239;0.7401547241163922;-2.1407003902061015;-0.7107090940238905;2.497393610457964;0.4751704068911651;0.598387002232783;-1.8103970483495188e-05;0.13578334477748605;0.003591966387667714;0.0073882447611809746;-0.0008896847726491627
10.113873720169067;-0.6707036779918347;0.7628750907449504;0.6148882486491223;-2.084456792643721;-0.8362250993082663;2.5864197159687436;0.5624983446484824;0.5985866484655565;0.0005131950894153164;0.06619973690911432;0.0026523667783010098;0.005227297136461015;6.507316187923284e-05
10.17303466796875;-0.6348706861617375;0.825185122069251;0.5693741858443606;-2.0530366796440003;-0.8832807444894444;2.6081441621969;0.5855569339005333;0.5976238864442946;0.0014924263864195717;0.0456891518658573;0.004426370224978224;0.0077516383592875935;0.0004221618011168905
10.244938373565674;-0.7540613838468317;0.663723521104842;0.7317969338378427;-2.131777894244061;-0.7485141231098011;2.506141575101061;0.49454533746317786;0.5990461392931999;0.0006900630830745838;0.1305828188552145;0.0020668514457053127;0.003565783182584041;0.00034057976219776707
10.311067342758179;-0.787689183058367;0.6303133104503451;0.7632913920540076;-2.1542885677155326;-0.7311679367053046;2.4977156805907406;0.48563675176364685;0.5920096910503275;0.004667296399858682;0.1370314650069277;0.004113847887546395;0.0066669035464361;0.018702428774882686
10.379165172576904;-0.907230750600557;0.3525105920101934;0.986433931545311;-2.6311913918278282;-0.7662788339344875;2.7164810370239447;0.4508293417004836;0.44280343218798557;0.08731736201951908;0.14164512999035372;0.0010087066675287394;0.005638397172588916;0.3398059154431214
10.442671298980713;-1.0450203949488852;0.21273813034632294;2.1284369303222093;-3.03620576018134;-0.658442402075158;2.87590196846474;0.8410209536720048;0.06617666310987944;0.2947994917537063;0.1534600970521519;9.363075248592948e-05;0.001097318213893614;1.0423695015758387
10.513991117477417;-0.3941501700587273;-0.3066499320598868;2.4858137044581055;-2.4531350539547603;0.4328039823094385;2.6596400048888538;0.20077402187831783;-0.17862545088796258;0.4315283037310926;0.15785994461583372;-0.0028705913721556796;-0.002184539570685836;1.529414116194967
10.581833839416504;-0.40805854797995433;-0.37579728570173954;2.5208957165904557;-2.3611434606608683;0.4440544069557575;2.624852916268618;0.18172343900675436;-0.19996332484550314;0.44356751870514;0.157324878336774;-0.0043234248309768596;-0.004665229193786137;1.5721958943670524
10.641667366027832;-0.5148102241097803;-0.5411540295941877;2.673871431387105;-2.30600642599189;0.6330842052320187;2.7420085976274438;0.04481237195108667;-0.19921457585572286;0.4441029996552006;0.08162268882398992;-0.002886413155797802;-0.0033029382469258327;1.570760097911987
10.708439350128174;-0.5731827294635838;-0.6114835744172336;2.7311634884000844;-2.2845490156075563;0.6761854864647256;2.7690536487233874;0.01399635222318052;-0.19800015450533426;0.44341153976383785;0.06743989149074202;-0.005337698659203123;-0.006457734104239798;1.5702734077079517
10.776258945465088;-0.4200116130505527;-0.4087505193319574;2.5377023686773486;-2.3546103866391617;0.47591888532571636;2.6365235945860315;0.1587707360519124;-0.19914917970780938;0.4443966294137542;0.1507139312115846;-0.0024331270753102812;-0.0030998014965732926;1.570426731417409

10.84289026260376;-0.3964238519838892;-0.37885566424862205;2.507572065630481;-2.360331050582582;0.4534270486143681;2.622894134330419;0.17465120088801145;-0.19928926911585979;0.4444529833204863;0.15851051667425847;-0.0023421972040815345;-0.0029911688427363883;1.5705802733690883
10.91226601600647;-0.38301874656278834;-0.3265576552959022;2.4667160549509672;-2.4550198913416423;0.4429986258165859;2.6772933614559964;0.20928116979428868;-0.154694576425822;0.419574285946311;0.15632173264471239;-0.004445167671374832;-0.005357500911017765;1.4838569760951354
10.982704877853394;-0.5692352088871795;0.1443175311909295;2.051249830731188;-3.013206488514835;-0.5115000281778879;2.8941730432279327;0.8790094504474739;0.06284206991443951;0.28539530819387027;0.14841546570689607;-0.003683124150226291;0.005143621633190065;1.0214675431027642
11.054857015609741;-1.085086637878998;0.3173490796912781;1.1422408699948798;-2.7081816045631184;-0.8648582685506403;2.692660702172076;0.5139779874288077;0.42822757039098536;0.0926187064415316;0.14277268086308703;-0.0016880640691289035;0.0035021620110811187;0.300345364729346
11.127344846725464;-0.878121855659586;0.6510804515504764;0.8556132427814234;-2.1883297306141594;-0.8225435444909834;2.4650002222156893;0.5362392095301955;0.5901721959113126;0.004124198860025944;0.13805494727750506;0.0011317960404378174;0.004122534306867678;0.01621798033867684
11.198472499847412;-0.8618002890926455;0.6910033887965459;0.8388710828561319;-2.1263162787472343;-0.827126539096839;2.4466730549422504;0.5446196553203686;0.5984276255937057;-0.0001777553708859681;0.13347572315373377;0.0034932214123184185;0.007121596426143767;-0.001010936034552259
11.265052318572998;-0.7369013792836006;0.866146847832372;0.6716258210247563;-2.043476885266848;-0.9934322208225295;2.5444953310777167;0.644704608372578;0.5988654490250704;0.0007699755445813776;0.04836009549251753;0.0026370374545302533;0.003843581773794662;0.0001940112524617597
11.336874723434448;-0.7493384027816212;0.8546329034619866;0.6913482193046998;-2.059814584390073;-0.9745538555751683;2.5182170337469376;0.6279029920229005;0.5981337305269263;0.0014803731199021525;0.0681085744697725;0.003892324761296708;0.005631908718347422;0.0005332525431534619
11.40752387046814;-0.8807347003706614;0.6979048536814512;0.8624731967247712;-2.1255865563217577;-0.8415383252581146;2.4323109484840835;0.5532358361046361;0.5992735772852824;0.000568527520688886;0.13850969025557808;0.0021582298478981412;0.003101321556366504;0.0002761748296564929
11.474607944488525;-0.9384818019347421;0.6192473422183498;0.9274339832092444;-2.296098229957232;-0.8812981662835204;2.5112082281422214;0.5497697539665043;0.5295855571813124;0.04186613180909848;0.13962173807916106;0.00339908279632837;0.005424402240209826;0.16711205142623778
11.547390937805176;-1.188754678724651;0.28395518624022476;1.5094018505532691;-2.9092785916179125;-0.9318220032807654;2.786335901719455;0.6362147755141443;0.2837523071251684;0.18536004072682305;0.14642575269210722;-0.0002562412086358695;0.0022220939921577462;0.7014548400234416
11.61747121810913;-0.22366247807260997;0.08652811157563756;1.781301951708297;-2.852647242289983;-0.18555823312697584;2.84524203152293;0.47720368732592666;-0.006765332931283424;0.36550466954532684;0.16430403080228473;0.005942287577650302;-0.004804959917761887;1.2660116665598045
11.688071489334106;-0.2707459126285463;-0.382526457454091;2.3215383816834247;-2.4344392523234113;0.583113322794321;2.6256662367296837;0.004708682626997085;-0.15196275927587732;0.44160265819889144;0.1583965001867182;-0.0027960925538759217;-0.0021389665286624406;1.56486534695662
11.751957416534424;-0.2885528907709767;-0.4192578439436079;2.3566645433621582;-2.4107971188947896;0.6182512057549099;2.6275827318897313;-0.033803433530018356;-0.15494435258826547;0.4434630725454451;0.14490962857919787;-0.004474093808965908;-0.004807130650051062;1.5722078560164616
11.818733215332031;-0.4947051744694386;-0.6290082784828654;2.603966666709419;-2.323819713048845;0.8786056252696737;2.742833273205652;-0.2124608336525493;-0.15404301943606702;0.44426459195588447;0.06673628691742106;-0.002394620155084779;-0.0032739917348326517;1.5705578715180535
11.879446268081665;-0.4276007673115747;-0.5598652231308434;2.5009736416218384;-2.3679773831682853;0.7836374904841326;2.6929649586952067;-0.12588384599418934;-0.15354803183964919;0.4439446507228763;0.10897316241050785;-0.0034132979232809222;-0.0044448925075181904;1.5700724047135322
11.945864915847778;-0.26360058103472905;-0.3998014193863453;2.314978371449495;-2.414750064034435;0.5976170766217046;2.6122229889803474;-0.009087673569270205;-0.15430751269835308;0.4445466466550369;0.15887474922633435;-0.001863415822350048;-0.002679564057198742;1.5704829853342217

12.02831745147705;-0.2632585664024498;-0.3996749594317226;2.3148434608247213;-2.41476601447526;0.5975558901181985;2.612204043758916;-0.009072433140331793;-0.15430666687939817;0.4445456789336023;0.15888176467306586;-0.0018649171516473234;-0.0026816790369559476;1.570482951592448
12.09342074394226;-0.2545067191232677;-0.3865862196664551;2.299034898509233;-2.453705217508359;0.5966685658748481;2.63667163753649;0.000766024182794034;-0.13725986009287328;0.4345223696882554;0.15752732277999093;-0.0034991378706524284;-0.005208483527903995;1.5360062013232945
12.164251804351807;-0.007878856881987417;-0.0830809267214776;1.668149637359548;-2.9268216151337514;0.34497595893494415;2.915888125315414;0.10033355517512677;0.055244122459029585;0.3076694870898125;0.14429464016811655;-0.005337418328644682;-0.0032696787036143966;1.1604439278238612
12.242563486099243;-0.40126791136359774;-0.001900937729664598;0.8445986872718434;-2.8723232547429287;-0.10861916428152174;2.899423233026023;-0.00010821174294584068;0.366704946756461;0.13111925773705754;0.14768214634459204;-0.0011590571342853248;0.001107850966492423;0.4248506851959356
12.306730031967163;-0.45320561215792576;0.4209845335203548;0.45430296389133407;-2.3135156743656142;-0.3951291305436806;2.648816736774945;0.24294540958229804;0.5659961696074377;0.018562466144944292;0.13877959832277897;0.0006488923816822515;0.00420274201394133;0.06750596041568946
12.377037286758423;-0.44555741348700595;0.5045792863054914;0.4203839966130589;-2.1700641713192366;-0.3861853749400308;2.596517944467803;0.2645331519545002;0.5981562056043175;-0.00031495142136549734;0.13565481118473516;0.002464500377518378;0.008785773001601108;-0.0010913148053790878
12.447731256484985;-0.3622448196616461;0.6848481333036034;0.31404026991426814;-2.1043469453568813;-0.4973434732484936;2.730964905434635;0.3467669131674689;0.5985029747885617;0.00045967035688097846;0.04955096743197307;0.0015439407114638652;0.0051771499686205395;0.0001315359727419086
12.520615339279175;-0.3499792488529052;0.7177977940271552;0.30160847776829947;-2.09909228186121;-0.5051996937477297;2.7329896359122614;0.3497814473545482;0.5972506180633773;0.0008992795470015625;0.05185864631922636;0.0025181296346596725;0.008869888042778632;0.00024118744119863095
12.587315559387207;-0.4482480369340216;0.5145691649745925;0.4227922357445344;-2.1674164123704167;-0.4019767910222418;2.599783873024275;0.27327859752899153;0.5989180060173754;0.0003327016124271535;0.1352060642303644;0.0012526274771574887;0.004287058295808973;5.766650936048579e-05
12.65217638015747;-0.4577291020505103;0.4846247262437191;0.44603366935215805;-2.225884605067201;-0.4018526434557175;2.6183843619520215;0.2592054594343267;0.5778903060827755;0.013325263820544598;0.13667330219226156;0.0025364511103518938;0.008418970669157097;0.04474332698968407
12.722865104675293;-0.4687733400332643;0.13664102444710746;0.7277520924821217;-2.8212890300709583;-0.29331311421677375;2.899358868557637;0.07127328561878343;0.34112462243799946;0.1604283570769371;0.1433396077710421;-0.003667768779926585;0.004352713126857643;0.5706999709490166
12.796650409698486;0.24452203434571196;-0.1721375794471074;1.3472789333006974;-2.9125025262828927;0.5748957993382695;2.8394040454549163;-0.08852079350212216;0.0716129466663147;0.3285944989910358;0.15499125401052952;-0.0007086076746674954;0.002135696252563515;1.1661575701016325
12.854706525802612;-0.2690702296683085;-0.32880354872399264;2.218281896086543;-2.5429862289795286;0.6031683436593624;2.6621994446426847;-0.09639499705877075;-0.09551035410205429;0.4347672686995129;0.15844124168857837;-0.002466213841031713;-0.0017532381429359405;1.5388918304204608
12.918972253799438;-0.2885169360048452;-0.38013971678723024;2.2664384424486927;-2.4671645917750764;0.6195565592503938;2.632968318226614;-0.11360059357699193;-0.10967065111724626;0.443786405606803;0.15652478570626369;-0.0040595564218520504;-0.004494401038635633;1.5714279151703883
12.984599113464355;-0.5237324991621755;-0.5996731893369511;2.568126873606749;-2.3737121678262816;0.9355293739093806;2.7504027633274912;-0.3431093492882962;-0.1091491031016967;0.4441965682485878;0.06899466077519596;-0.0025334773694758116;-0.0030274653684772422;1.5705867398046882
13.062278985977173;-0.5349674897632406;-0.6179765387673779;2.5746960052614236;-2.369961056843275;0.9402907542357406;2.7504386913018637;-0.34346174823127695;-0.10824307601022903;0.4435231925223844;0.06832960437759361;-0.00476533100236957;-0.005704754364318291;1.5702374393725362
13.12123727798462;-0.3165098932354713;-0.4016468372260227;2.286236605181755;-2.461363105436911;0.6545726064685509;2.6393898234137927;-0.1302213744978995;-0.10926184681817726;0.44451726363621913;0.15424546269920408;-0.0018081243022779392;-0.0023568729414070446;1.5703802054523126

13.204962730407715;-0.2763791995325193;-0.3811679048142156;2.25281902643603;-2.4666638970070425;0.6232037614328196;2.6280781384848995;-0.11666395866534174;-0.10936656960909373;0.4445422945915368;0.15905202152207304;-0.001815645348934022;-0.0023579685790257967;1.570470904054515
13.2753746509552;-0.26180695466513226;-0.35664602444909566;2.2125750112913716;-2.5274069276222653;0.61917113324568;2.6658517443435708;-0.10046566870397378;-0.08314058165107094;0.42810810694082974;0.1575944678973224;-0.003407516866548076;-0.004296491602736302;1.499369901067933
13.344817399978638;0.2138661327154492;-0.1560462861728773;1.2488101256684878;-2.9741308687990724;0.6360156606900018;2.8683707287859983;-0.23318015121049607;0.1473284837905566;0.28245331647662225;0.1514609076058369;-0.00120803586243993;-0.0006076268457098701;1.000050708943798
13.415948629379272;-0.553541216100931;0.12884528146581076;0.7427639011634182;-2.7348094613485916;-0.392445602250834;2.8347302606431057;0.17093010436844036;0.4321905189832138;0.10160936757147451;0.1436960435618867;-0.0028057416991341005;0.002484832478726533;0.36513806922502556
13.479789733886719;-0.5159303169256955;0.4790926698496176;0.5006955796214285;-2.235791392250481;-0.45248841006507323;2.607215343744977;0.2952986457412776;0.5841837219704344;0.00849695268359928;0.1382222753829333;0.0009638526176107017;0.004351226162231825;0.031601539841254835
13.543889045715332;-0.5112446317872665;0.5236445195610617;0.4837428859665138;-2.1649470953099965;-0.450931112678286;2.584941133693078;0.3096948073299881;0.5981181719245218;-0.0002540023503992046;0.1328345330842356;0.00274644598502494;0.008597021235274678;-0.0011037908288080859
13.611851930618286;-0.4138305787528278;0.7187915148079234;0.35422199211202177;-2.0932612864873157;-0.5795843909650107;2.716178975479305;0.3989559872253765;0.5985621722207746;0.0005313324593525337;0.04784912362020455;0.001717714197692146;0.004895230184387962;0.00015012870940302119
13.68144178390503;-0.41791537445815896;0.7087545550843579;0.3642161493898981;-2.105898782913099;-0.5674601203958831;2.697024118865918;0.39013200365089773;0.5974744512966844;0.0009666793840229777;0.06129501828578253;0.0026586516835578502;0.008061718873971169;0.0002862465960423167
13.74538254737854;-0.5208791407836242;0.5225046644100861;0.49486767655866526;-2.1646734291548118;-0.45851870474841094;2.58100705525257;0.3131484669353015;0.5990102442430074;0.000341890569144305;0.13792777306696674;0.0014507860875617425;0.004209146244679123;8.045280768012106e-05
13.818328142166138;-0.5369528317815262;0.43981892190101046;0.5535505520850892;-2.345575215536849;-0.4780445294772395;2.657943673821835;0.2771858910470244;0.5373082922736159;0.04149673542274704;0.13855695987429478;0.002283520605507835;0.00758984650610736;0.144142101844273
13.887435913085938;-0.554911529057212;0.009159388523667378;1.1812741848733692;-2.936876618815222;0.060216733122342436;2.946334809381419;-0.14115065878890265;0.26683728388878075;0.2239177354652031;0.14186481841000773;-0.0034241502175884537;0.0006752604024231992;0.7980297757017125
13.958745956420898;-0.1766521727718482;-0.16006281089173324;1.945800568505974;-2.7563384178597667;0.5005275248389145;2.7653892207492587;-0.12009431532240411;0.013247690069355049;0.3899992364236996;0.1576214275274684;-0.0034170978477033403;0.0013321119738007336;1.3835772975957528
14.02164912223816;-0.3400576792059127;-0.3479411268990473;2.2309815780786417;-2.512292865850637;0.6096255788677376;2.6514645507475527;-0.20123226294789243;-0.06481665765198259;0.4438708133328229;0.15889371866791901;-0.002434923064910181;-0.0017946712156608404;1.5712775555598202
14.092288732528687;-0.40256800661948144;-0.420222596045543;2.334759523462915;-2.4895237595989403;0.7450346442682996;2.6903797350860383;-0.29768373477984156;-0.06469098715509035;0.4438647834321703;0.12859929221961525;-0.0025987776568363935;-0.002842237071885845;1.5708086476931977
14.161244869232178;-0.6179242574633976;-0.6019514201960816;2.577922162900249;-2.402608391077903;0.9731985321606267;2.7696585163171257;-0.4676142865771995;-0.06424608747226752;0.4442106275747782;0.06683674508278692;-0.002530772993193936;-0.002651161302092733;1.5705994073649687
14.228582382202148;-0.4342408156913078;-0.4354095381342007;2.3498658476553116;-2.489928946411437;0.7190925049991979;2.678160139965736;-0.2621209972477687;-0.06414406654042269;0.4442667113629102;0.14238131180546798;-0.0024645816902006176;-0.002445018354703569;1.570146367059413

14.305042266845703;-0.3310064446389078;-0.35674792531374067;2.2219332822270097;-2.507984615411001;0.6204074095130436;2.64731441905878;-0.20933413087908015;-0.06442948406634144;0.44451763005519707;0.15915150973379563;-0.0018672412349214204;-0.002065804837537075;1.5704734669260085
14.377318382263184;-0.3150264753113081;-0.32716077027449275;2.181127275065996;-2.562377135591275;0.6154773271141258;2.674021091793404;-0.1937171354344338;-0.039886762140784536;0.4280543693016209;0.15776656914307002;-0.0034789800667164423;-0.003759989540276815;1.499371118088492
14.445576190948486;-0.07994377358037275;-0.13302213261891094;1.537714564977951;-2.900013438694889;0.4977993967191927;2.860623660985077;-0.17635509043232478;0.12452388073837725;0.31796701163491986;0.1513591005182151;-0.00208125722348655;-0.0010816188504664211;1.1234260611790323
14.508994817733765;-0.7000901600511105;0.08372077607356232;0.9319446446909945;-2.7851210924663556;-0.34290378651267206;2.8240854940560984;0.20390208918988284;0.409952998058407;0.12242431523190266;0.14601482735238905;-0.0013681206316321923;0.004094671884319975;0.42735948125208395
14.575223445892334;-0.5787615617444821;0.4999364058997373;0.5598113816385171;-2.2264514519146146;-0.5108354283712693;2.5974842113819983;0.33140314198212906;0.5851413754267027;0.008491276891010351;0.13825307002487677;0.0010411170157662982;0.004284494267897647;0.031578577071120016
14.64118504524231;-0.5721024667334844;0.537056081951313;0.543454160835215;-2.1603359462425953;-0.5062090735684186;2.56818549997491;0.34442255770873054;0.5990867923820804;-0.0006735872077490301;0.1377265924922183;0.00120059593409857;0.00444883257504573;-0.0013007981734280704
14.707107543945312;-0.5057889784779661;0.6723378901515993;0.4464354237829693;-2.1155388814074594;-0.6070684738060086;2.6550745286105935;0.4138093890552095;0.598354324153918;0.0002390252247210126;0.07844752306416844;0.0021889885170844592;0.006154819029631687;-9.098951853221682e-05
14.778000354766846;-0.45513219471833954;0.7523780287648552;0.39495902847168995;-2.0794027200746594;-0.6541696156626875;2.698700689797264;0.4477172822030093;0.5973098768263433;0.0011611437239465146;0.046632815813830386;0.003356403275003862;0.008749974716390876;0.00031690681011821897
14.846504926681519;-0.5718006943433802;0.5574759546447012;0.5417143266973472;-2.155737770155765;-0.53145817885492;2.577517169730297;0.35824295572976883;0.5989472417695915;0.0004777822624157423;0.13324711000585926;0.001571156994127611;0.004006408687372443;0.0001513943234077664
14.911157131195068;-0.5873881511524885;0.5304676460539426;0.5662584693251325;-2.186336354262348;-0.5246052361976061;2.5793370546979606;0.34754230450890056;0.5881480425539497;0.008062964712882413;0.13662780809915098;0.003248628464828551;0.007853944839891458;0.03440423498666642
14.981269598007202;-0.6182275845700822;0.27862976565536757;0.7677037135241616;-2.6533728430115175;-0.5322475531938511;2.781675840703131;0.2441282043755555;0.42141011028605474;0.12729069429146445;0.14329463411211982;0.00019361674271815493;0.005803628831517117;0.44925138845044266
15.051512956619263;-0.7255704822109017;0.06689929365787561;1.8225846060067044;-2.918987259501935;-0.2519024707648372;2.8815875593737132;0.27445406497552405;0.1537743185402203;0.31901814215113167;0.15333232528466484;-0.000741789638454939;0.0013287616311485819;1.1285371482352917
15.116456508636475;-0.530047553555959;-0.246931706406178;2.2762436402966166;-2.607025348474785;0.4793741680588832;2.718719454239592;-0.20412083642347412;-0.00763356769563185;0.434929328611948;0.15861190175876433;-0.002552749965505469;-0.001176003513415273;1.5391063759551962
15.186321258544922;-0.5376942884483626;-0.28978371302490036;2.323229656984485;-2.5464134001514234;0.5016168003359809;2.6964786655009516;-0.2293876119625562;-0.020022307668444664;0.4437836178449421;0.15529133103969864;-0.004625923099738125;-0.003372053933572718;1.5716719307780571
15.252049684524536;-0.7900844949719792;-0.533439715610375;2.6542381530469425;-2.4518677762006806;0.856641964580898;2.8234603799434224;-0.489234621528289;-0.01943058746297199;0.4440233774880543;0.07096862551315636;-0.0033031336446879955;-0.0022495764163817937;1.5706799335321693
15.315789699554443;-0.8144886054680835;-0.5524076942679503;2.671795780122017;-2.445781879300773;0.8729162562883914;2.8289184870867983;-0.49655016725332857;-0.018758860366934513;0.44321216275012243;0.07062069186926037;-0.005674638976740265;-0.003987174385452424;1.5703281175475914
15.388319253921509;-0.5314360219938079;-0.2935474132788811;2.3131475286369882;-2.5458312372038785;0.5055188021163044;2.693694186780387;-0.22569036702736867;-0.019529122085016073;0.4444415483442418;0.15887496557471437;-0.0022081745822794705;-0.0017289684589842104;1.5705358014779154

15.46406865119934;-0.5257122241076462;-0.2892349716036766;2.309876655213551;-2.5462871231930686;0.5024620105081783;2.69264998748568;-0.22491424882593813;-0.019534577958454723;0.44442919703754896;0.15908842209173502;-0.0022470514588588094;-0.0017579304802829898;1.5705542708285674
15.533785343170166;-0.5176111740616998;-0.2618022423765485;2.260796075701374;-2.607828819752866;0.48827103111094416;2.7229778179468456;-0.19945170886469388;0.008792283568668744;0.4239417518838009;0.15747014469307;-0.004163548289076781;-0.0032173092174804445;1.499481289436642
15.603785276412964;-0.39720145800564355;-0.03417342452492145;1.639829036159516;-2.906259727389407;0.13669228491244834;2.9143851271305827;-0.0129458486418077;0.17355345570108555;0.307925107846536;0.14686825003092652;-0.0028430090938939743;-0.0005153064826320513;1.0818608476711682
15.669312000274658;-0.6251092785318009;0.15096550652546004;0.9221698881980842;-2.730130242329685;-0.4676409879375676;2.817931826669848;0.22309705402356084;0.4238442970105006;0.12293035621122106;0.14475655566686435;-0.0030894616050370152;0.002689286279125741;0.4412737882302968
15.735866069793701;-0.5837740237915172;0.494906827100948;0.5693919762986481;-2.221570956463044;-0.5158564553603844;2.5939446827730555;0.3344454682860327;0.5820541678116093;0.011494540359111391;0.13844237863100672;0.0011178765346476405;0.004253870402779986;0.03179300570885152
15.805599212646484;-0.5766618054316597;0.5434942623329544;0.5479506740375761;-2.1601568361065975;-0.5125547305167428;2.5671697129433855;0.3486863076743081;0.5981979797549541;-0.00010255637935737105;0.13536827538092772;0.0030592405162195566;0.008292912420662102;-0.0009259997554039074
15.87370491027832;-0.4773537638374483;0.7161300717114321;0.4208615357448915;-2.0954031156404223;-0.6393342082804203;2.6791442390281315;0.4411119724952779;0.5985169443931352;0.0004988009235109577;0.0559013757942442;0.0020238515155391796;0.00531100089812929;0.00012508749259342234
15.94032073020935;-0.4706074537941407;0.7358513490528669;0.411861333861832;-2.087954512356728;-0.6475170293730335;2.682164888805959;0.4424828582475877;0.5975516283444;0.001083665418929933;0.061417414550970634;0.0029952808469712257;0.007816680175741053;0.0003292839621714234
16.013086795806885;-0.5877473589226501;0.5427174703812767;0.5613832096056974;-2.159171294398448;-0.5233181015671651;2.563442592663306;0.35608097903823843;0.5990508245885414;0.00039184257835607526;0.13801153349608997;0.0016021553414513584;0.004020346642368317;0.00011935029884377129
16.080524682998657;-0.5989861671344552;0.5016112502276098;0.5922667404054347;-2.262515100117521;-0.5369007506499104;2.6185691447969486;0.34575889180740793;0.5622216729988391;0.022931526421463556;0.13750164608898363;0.0028897610238790036;0.007517451888572642;0.08668193250526984
16.155479907989502;-0.6712585107579594;0.12471192805138642;0.9636309804624537;-2.8340415420554903;-0.34232480908644813;2.9040736084503083;0.2040642897714866;0.33127839960230354;0.161091680306051;0.14084851637321816;-0.005687666828668651;0.00449730794212899;0.5215904623050271
16.22523546218872;0.06328147687853702;-0.28397126443035514;1.7838589012978252;-2.7877003407001686;0.7808081276636409;2.7183648878902407;-0.040390520244665495;-0.013639846364533944;0.3725298913540521;0.1545028159435645;-0.0042051987920430495;0.0012171772993802624;1.2374378149513872
16.295130729675293;-0.16584598907344406;-0.5772634639009251;2.217516043491915;-2.263393383573378;0.7794536573571094;2.469003868622204;-0.06177798618841024;-0.18802550304477092;0.4810801079005339;0.15761641327081138;-0.0032692619858296955;-0.0026687155800296136;1.5477785372506738
16.36814570426941;-0.19288471857919554;-0.6259069483555741;2.2451045764637607;-2.1862113722859204;0.782216046155428;2.441427628377909;-0.07111902836374062;-0.19955635815269682;0.48841869465887366;0.15363758873231287;-0.004927265814265816;-0.006204528441426749;1.5716461653775937
16.436687469482422;-0.3294965909840992;-0.7875399610666753;2.42028158457316;-2.115995897068723;0.9644572368538809;2.5400681488543366;-0.185282295406207;-0.1988146856933465;0.4892510461677077;0.07023310174844156;-0.0024566041141620264;-0.004071970771358127;1.5704268494088267
16.507827043533325;-0.3284682450509444;-0.7988830847417541;2.4199371108001833;-2.122207763662738;0.9600053315711259;2.5245443146180397;-0.17297955119023012;-0.197889367264843;0.4889624554770407;0.08821047560118538;-0.0035079146176342202;-0.006505931499718298;1.569820695883735
16.577754497528076;-0.17780048235909218;-0.6325831490381191;2.2243246203735607;-2.184093875443845;0.797654542128603;2.4307577756761054;-0.07838543524091834;-0.1991272070867851;0.4895984488076736;0.15840772340760284;-0.0017854335871483947;-0.003323122883579051;1.5703037304676586

16.65918254852295;-0.17580581257914796;-0.6322247394627722;2.221928728209879;-2.1842572528084347;0.7973805932316895;2.430127420501081;-0.07846880085857588;-0.19912808417437278;0.48958924468622966;0.15859708399354985;-0.0018059328778882234;-0.0033438408778144312;1.5703044556621901
16.73457098007202;-0.13976249484629388;-0.5892183186533635;2.179367459633382;-2.2832557820843538;0.8134436876844768;2.4707976265134115;-0.0782533921713422;-0.16233200197777847;0.46723117436613754;0.15672588422507078;-0.0034133655631278666;-0.00625963026743749;1.4990647453602641
16.804330825805664;0.07935646506393557;-0.3009564197278083;1.7313742685951627;-2.8590778460703303;0.8476570031561974;2.7593863348418495;-0.1242210500677392;0.04918289722957302;0.33643916385464;0.15167506927024305;-0.00366849914689315;-0.002193605039470483;1.0404331974205887
16.86845374107361;-0.9716224825609983;0.043301650465313646;1.3024585740963808;-2.8468751989680356;-0.044107813797519935;2.8164232778325875;0.1714449906202793;0.4021671135204056;0.14850035676000028;0.1639668296180316;0.08468155397924153;0.003836922864155937;0.34783442309827617
16.936512231826782;-0.6445451806732412;0.5151961773002758;0.6240703368664606;-2.2337987890340107;-0.5728189298562238;2.5770777012851087;0.37866992471763083;0.5866236525203445;0.00629351245519292;0.1379736278425807;0.0006843150483984782;0.004474106785976175;0.022443862464169267
17.007786750793457;-0.6341719884523602;0.5667547569782179;0.603318509429061;-2.1532857592680523;-0.5762020748633496;2.553017673325112;0.39321651499327004;0.5981934601929751;-0.0006575842832462484;0.13063491499155971;0.0027218625394906425;0.008291319103817295;-0.001626017540012343
17.075475931167603;-0.5156260262787096;0.7596880035900968;0.450138275479707;-2.072743077983474;-0.7243902752930729;2.6750157653537388;0.49300183831701405;0.5986640522103701;0.0006360187526241446;0.046888630308423884;0.0020296068321092827;0.004407231365585424;0.00017060804956316948
17.15719771385193;-0.5291428409692935;0.7328082016175679;0.478168846862876;-2.0912527777529357;-0.7073797680321512;2.652733389342024;0.47423342453739226;0.5977271143376327;0.0011418542115653602;0.06742446289742918;0.002945262189344908;0.006861328007318096;0.00038460839640957117
17.227079153060913;-0.6485876316851469;0.5647725689340963;0.6211390751089074;-2.153656390416883;-0.5830587830175231;2.5448850985800164;0.3949773465322375;0.599088510416117;0.0004327065125607414;0.13813469427691405;0.001739671042972943;0.003871316390126479;0.00015253042833008378
17.293232917785645;-0.6688788791405478;0.5032832213586218;0.659653816045688;-2.2737404436834137;-0.5984555344631626;2.596215473439254;0.3864207636654764;0.5643266166143427;0.02301148490619225;0.13765396550143363;0.0031661885237465695;0.007203671203968101;0.08674284676404732
17.357486486434937;-0.7740765387771442;0.11635646493777063;1.1469561444599465;-2.905285197763644;-0.3808579219522841;2.932485288256392;0.2300936548305712;0.3100285499900681;0.1827348685536869;0.14025575967107656;-0.00571629003591019;0.0054088364457915315;0.5866951337402858
17.42651605606079;-0.4645489834290131;-0.10926536666311115;2.1990535998409326;-2.722680374896793;0.35394027293170893;2.7752224466454773;0.14963134071838402;-0.027317274027473557;0.4034630090599905;0.15567408138016287;-0.0036402974310116797;0.0010213498596876017;1.332431609919715
17.497580766677856;-0.5267278193289302;-0.41991620842162725;2.5096414128964435;-2.3020846554093684;0.4768038684497813;2.5930168501649686;0.048787752807955886;-0.15162037355654007;0.48645743248410794;0.15800407634175215;-0.0033725253669376187;-0.002453383743902923;1.5672407122440362
17.56344223022461;-0.5471292450201592;-0.46550831669485726;2.5406264463959127;-2.2733103711450737;0.5244690063356363;2.611684961751334;0.013664020780693953;-0.15455717968888893;0.48839042806089217;0.13888489042086766;-0.0057921762989950306;-0.00516096622916819;1.5715506755185442
17.624358415603638;-0.6746613676568138;-0.652314649598905;2.7027916633376927;-2.20762121553748;0.6825934484453189;2.723948636349829;-0.10047570500715253;-0.15402091881170527;0.48904935556306184;0.06626978193969899;-0.0032164459867047262;-0.003266927167367083;1.5705188423923924
17.6917941570282;-0.6462908747490914;-0.6025277810349587;2.6557150445747437;-2.2324668360031428;0.6318119224625729;2.6804371437150496;-0.062443711834015314;-0.15341627016893622;0.488483452254399;0.09421056437880797;-0.004905005106369874;-0.004787311804272462;1.5701302940030717
17.763387203216553;-0.5157243696090763;-0.4356133158786486;2.5014449226618476;-2.281347576937428;0.4889263461524678;2.5805512866844738;0.037975097462249696;-0.15431111637319592;0.48935234586203136;0.15834408529943667;-0.0028215299888290604;-0.0028868833394954767;1.5705377249785064

17.847952842712402;-0.5154731473862699;-0.4354945372161647;2.5013458414605925;-2.281359484862194;0.48891453929336537;2.5805317211099776;0.0379833921676096;-0.15431014960198425;0.48935121425803246;0.15835025922642662;-0.0028236630643521023;-0.0028890795219212164;1.5705376728229608
17.918303966522217;-0.5060494375027309;-0.40793630931514047;2.4723101059435812;-2.3539794610597133;0.49013566873672243;2.6221732172423957;0.0524868499082114;-0.12635508600675743;0.47112555066304546;0.15631770805931583;-0.005366786388126485;-0.0055066644901330414;1.5133742694742225
17.985476970672607;-0.4293000044427093;-0.07699565031692712;1.9795723962222391;-2.8751705748179495;0.16458616931031766;2.9068160911250622;0.3372456261831913;0.0784183751378477;0.33704511445448865;0.14749845205623366;-0.004476486132248724;0.002883650362574343;1.0806155900173429
18.056984901428223;-0.9686241813308429;0.22183353234491188;1.1584002939604447;-2.7785876384975055;-0.6604165452190278;2.8030445388076144;0.41388897357075916;0.4018481073260207;0.12691582302800053;0.14519595430770105;-0.003871665126811009;0.00130663971664262;0.4159507179017117
18.12627911567688;-0.7765813185298076;0.5657937484706737;0.758115874187713;-2.235660117597835;-0.7074501171173111;2.534152886093662;0.4628367934615678;0.5783486245305577;0.01248818837149496;0.13843824278719835;0.0009101786070133381;0.004108726016938525;0.04175220505765821
18.18647074699402;-0.7608349863149138;0.6218045318543122;0.7328543297770889;-2.14144839208945;-0.702394971220472;2.5004488152615463;0.47066638970850283;0.5983452437593542;-0.0002394300235684651;0.13564343288275033;0.003319052954199883;0.007635578888322022;-0.001097379696673615
18.26566171646118;-0.6411405288218264;0.7953793721237128;0.5788678032888126;-2.0660966482744536;-0.8566137253537542;2.6064344447946595;0.5734681718121593;0.5986969866707501;0.0006404167322057434;0.0525715784679205;0.0024288896849770426;0.004372271376770476;0.00017442894429302907
18.33681344985962;-0.6476207692821578;0.7960098803467526;0.5958097177791428;-2.0744646748743865;-0.8520072783818815;2.58442326267828;0.5607546077251375;0.5979285666041607;0.001340525770179771;0.06776234733277514;0.003694319061949232;0.006587314507035255;0.00045962791681066005
18.40639853477478;-0.7762814659764108;0.6271940711699289;0.7511833669693502;-2.1394709305123185;-0.7195663384822297;2.4926950978127618;0.48096117234331626;0.5991845991142506;0.000514173564093073;0.1383322692952738;0.001988341644839771;0.0034682866544323895;0.00022471658421583006
18.47898769378662;-0.8033617133142608;0.5608647036897523;0.8012620646779691;-2.2749914814507988;-0.7431175762602713;2.5594622600162573;0.4749839853624631;0.551611403530044;0.033454409042003974;0.13860623549214096;0.003552157647262133;0.0063539682735874676;0.1042941640990947
18.544876098632812;-0.90577185602314;0.2410557357243852;1.2710928305931644;-2.8341380250687536;-0.715467894143877;2.820627275642588;0.46349836615774986;0.3217371243331338;0.19084187154603366;0.1451375974931426;-0.0011380753800914805;0.00428048549098899;0.6141003795075103
18.60862970352173;-0.101401240399559;0.07700412926428113;1.3591375034844502;-2.7960133908610647;-0.28128488951134845;2.8035829702725534;0.538028461702333;0.08496983680139973;0.3817657836013587;0.1637157224097156;-0.0011163629275487727;-0.000666687640013245;1.1062555994854815
18.675652503967285;0.8181797485126596;0.5420368950123464;0.9692608046328521;-2.327753026407324;-0.7981118690191202;2.494538917343112;0.8518168940736315;-0.10673104076242423;0.4868654347001655;0.15900008904376967;-0.0027013911818009736;0.0013038318047480647;1.5631483455474586
18.74476981163025;0.8561287064585792;0.5835089353953604;0.9515934504822807;-2.298042651207737;-0.8287083208552142;2.491597934933251;0.8654253570468438;-0.1104093660074097;0.4887481231421741;0.14564456968605716;-0.005378182972926959;0.002340738408337882;1.5711253433807064
18.814703941345215;1.0374400419100018;0.7620044630676595;0.7254476353659687;-2.2173117391069557;-1.0396261830709284;2.5852075504019743;1.0015592667442634;-0.1103873453499235;0.4889875153007111;0.06785105969922554;-0.003524272654192109;0.0015009358851043927;1.5709330353949993
18.88795280456543;0.9809098937951566;0.7089584672619127;0.796684488473268;-2.255758712146391;-0.9633819275496398;2.534968088389682;0.929788881985302;-0.11065160009003626;0.4887198510557798;0.12361339928190582;-0.004053549251188432;0.0015587604853510644;1.5713615442090296
18.966833114624023;0.8356921237147907;0.5822146643748534;0.9810610496028431;-2.298473131474657;-0.8223653031222229;2.472455528486903;0.8611171269933608;-0.11030009236388588;0.489362719227323;0.1590495514555919;-0.0027325846688837758;0.0011497565218486752;1.5710617949231773

19.041927576065063;0.8356490732048307;0.5822158528352315;0.9810781140944806;-2.298474230563393;-0.8223652273908315;2.472452396959047;0.8611169648988257;-0.11030010502389767;0.48936258389516796;0.15905040019332195;-0.0027332381391809444;0.001149967920362234;1.5710618603347375
19.108072996139526;0.7965924405740514;0.5527638202295524;0.9954999895607823;-2.349453855608278;-0.8177125961282323;2.508858693972205;0.87699925187417;-0.09043122177586443;0.4749229576157617;0.15772888664369517;-0.004992263822636538;0.0023424276301163395;1.5143072360815832
19.18206000328064;0.14211517626600578;0.20232626414898336;1.2910482979567464;-2.805660968836407;-0.6146992339400712;2.799992387589046;0.7510355970549365;0.07168280487122677;0.36131234706637083;0.15201220115102249;-0.003919823695990066;0.0004001756307993184;1.1674309666183844
19.24767303466797;-1.0091188122753643;0.3118314676368321;1.273957649494415;-2.7839884438302738;-0.8634428591893899;2.7285675797388063;0.5411998651106238;0.38031281300012615;0.14911951835938572;0.14568525078723243;-0.0010522675156061723;0.0027425734563661878;0.4439570646516059
19.315929412841797;-0.8835136704764777;0.6231590052042764;0.8655976066436697;-2.2172930930041885;-0.825002670830052;2.4849808373263076;0.5333174568094146;0.5796614074229909;0.013801250050059046;0.13922667814713613;0.0021735582404138715;0.0029677450070349247;0.0434243596780038
19.386816024780273;-0.8607930870648142;0.685225294571894;0.8400928119464113;-2.128659834549231;-0.817682114886852;2.446024392137758;0.5394279828032751;0.5986060686559358;0.0010506348119121685;0.13662911043691967;0.004602580885804397;0.005945485338717624;0.0004176403001816308
19.454067945480347;-0.7461850395871008;0.8404406504015864;0.6890846194807723;-2.052334813113541;-0.9751270873839308;2.5417224120873576;0.6379847879062512;0.5988400657187261;0.000792623182088041;0.050298469888014105;0.0027105203411717524;0.003956535386974551;0.0002502170308873124
19.52599024772644;-0.735767983696042;0.8680291638187603;0.6745835460805125;-2.0452103308785077;-0.9855657619681155;2.5369908311167966;0.640163946184733;0.5979177855559592;0.0015971940164822658;0.05291047240186306;0.0046586184857386245;0.00673732419778184;0.00047351215245611185
19.58966088294983;-0.8729252313471525;0.6997965281823673;0.8530139937619481;-2.1253420443238387;-0.8398282543221924;2.436353029165514;0.5523857435872364;0.5992615277365236;0.0006141733324097542;0.13721300034304462;0.002138360271127754;0.003049567614918051;0.0003074127897416347
19.64862298965454;-0.8913791768954811;0.6831648110663266;0.8765511243877038;-2.176986759316377;-0.8520069585912307;2.4571562219485354;0.5522029696221002;0.5746278518175482;0.01888849671493987;0.13813152120474503;0.004191686613765616;0.005839947490862422;0.05731183449645198
19.728829860687256;-0.9824699074831083;0.44337833386164194;1.1630185111083833;-2.6659049518012337;-0.9371836400906677;2.656974603415228;0.5807334504612287;0.3921000892022139;0.1526252831005728;0.14475529594055153;0.0013024957524407342;0.004334341230957159;0.48934213104687313
19.797712326049805;-0.34680565920289874;0.328137807605291;1.421469533258871;-2.7870583651249285;-0.8716745148288236;2.7060605501311805;0.8270995302490127;0.12342925411929065;0.3500265695732716;0.1548861789920063;-0.0005253669802028907;0.0022186034175324964;1.1593436235871772
19.86223578453064;0.5636985113361197;0.6185523609945185;1.1084920244112348;-2.379826425703072;-0.9426111782158317;2.4401366324840272;0.8662830353986344;-0.055145216177132764;0.4818227964295527;0.1590741873501551;-0.0020114962414886964;0.0017347170555051744;1.5467677705359586
19.928742170333862;0.6283090867170875;0.6637348974516568;1.092014460071062;-2.3212070303636483;-0.9552648446883465;2.412160897513638;0.8589454164168036;-0.0656274685934704;0.48901833471854933;0.15579793128519565;-0.004195595989439784;0.0031368476932123585;1.5711691669031984
19.99407458305359;0.8013927461680761;0.8243489855251491;0.8581131670055591;-2.243959871963905;-1.1696251708944505;2.497929023301256;0.9870223582146016;-0.06549487633278901;0.48913941048304765;0.0712416495405342;-0.0030720533944727352;0.002029022396222005;1.5709736562447907
20.062648057937622;0.8015856556445069;0.8210395810319517;0.8760672092744368;-2.2558219633365253;-1.1523137103411898;2.476840507091273;0.9684505241836323;-0.066060219249692;0.4886033421037408;0.08950038340230666;-0.004489658093251824;0.0031208057493753803;1.5712970106325923
20.136486053466797;0.6139773684101404;0.6788510658621432;1.1103635870150148;-2.3189373019526798;-0.9723917368243358;2.39594887608155;0.8686741749347009;-0.06537645755511245;0.4895041552794335;0.15926771608851362;-0.0021302405792326;0.0014883480784443027;1.5710750283289017

20.21602177619934;0.6129781265304528;0.6791691116271492;1.1115483635281587;-2.3189510619443885;-0.9724490652430893;2.3958548839316283;0.8686818772167451;-0.06537644638078333;0.48950273983272624;0.15928985392498596;-0.002133085550804449;0.0014892758209050778;1.5710754646596405
20.2866153717041;0.5569482878578773;0.657317461453137;1.1272612903868895;-2.3774006804644774;-0.9743935406640558;2.4249779349877016;0.8896392465074845;-0.041688401524502296;0.4713968646524939;0.15804315666705673;-0.003833258263030599;0.0029603712722685374;1.5143506669645859
20.35058331489563;-0.16284571680974302;0.39562383844902405;1.376081869059326;-2.778336966183427;-0.9396994529281884;2.6760169768221944;0.8574260489648498;0.1387463730538326;0.33739922225608976;0.15252513995986924;-0.0019788557916406353;0.0018579729337708884;1.0869498648901144
20.414886236190796;-1.0160286051868423;0.43045698414408484;1.2201557267521608;-2.659630528197299;-0.9686588521893515;2.619637089732633;0.5851273152670418;0.4270414613844463;0.12582271265577394;0.14456497143733296;0.00027662220711265447;0.0024438634035066444;0.40622317759026055
20.48351001739502;-0.931929550618503;0.6824868504560766;0.9237162796574578;-2.1861618626051538;-0.8894253639401919;2.4367582243651382;0.5717358437319273;0.5809667161645686;0.013920786232529212;0.1393635335379689;0.0023571764598016437;0.002683080956703941;0.04354998923208179
20.54388666152954;-0.9147836007901704;0.7288470573859351;0.9001629156096529;-2.1208308455841567;-0.8844020810426745;2.408477398461386;0.578507628839696;0.5987060901851706;0.0011715466713392993;0.1359837466784269;0.004865690531882026;0.005514818747499585;0.0005471522654228775
20.610816717147827;-0.7948826072296806;0.8960448771335292;0.7328321393390529;-2.0363189112518207;-1.0536615003745178;2.5032731384341202;0.6758593808464428;0.5989515800577057;0.0008327964405870934;0.047439487771081326;0.0027393247269731223;0.0035060180447359472;0.00022052591354586394
20.68729043006897;-0.7962203930087215;0.9001550211358929;0.7400242844372649;-2.046323607590649;-1.046664271437268;2.4891122445062357;0.6653847731169744;0.5981753246047704;0.0015926329907384217;0.06244079379036427;0.004314136663963458;0.005568772045311203;0.0005409095298471691
20.75637412071228;-0.9320712931117532;0.7431797763117465;0.919453532396914;-2.1178265422360276;-0.9073706344628771;2.3939631375854216;0.5899538937245565;0.599324213298025;0.0005925963018690939;0.1385627030979057;0.0022272844485960995;0.002890355048469236;0.0002984235385588261
20.825565814971924;-0.957498343186554;0.7150681168325659;0.9611569647287324;-2.2138152187589832;-0.9339571686121744;2.431715318538445;0.5912550155298804;0.5646914879844506;0.02813833506763127;0.1388188148922605;0.0041818052542435214;0.005328491670637759;0.08696897569442133
20.890503406524658;-1.0106718283878493;0.4985351639950615;1.2456490973497703;-2.702403903922537;-1.0527778983729617;2.602902945666531;0.6517238314327329;0.3736560331366931;0.1782494110695291;0.14633046824490917;0.001603721702472434;0.003493260507420369;0.5718094172033713
20.95546054840088;-0.19061423980638725;0.5241194205176298;1.33623315450117;-2.663825634632861;-1.0535232830755863;2.535656313691408;0.8851045097045338;0.09781578257520547;0.39531727597030886;0.15605928405880837;-0.0004232477654580788;0.0024342941355265644;1.2696342316671192
21.026575326919556;0.414823837671503;0.7287433836437733;1.1852021334029779;-2.354983911636936;-1.057128670204106;2.3523802903639663;0.8348535098718415;-0.015655955757219564;0.48580885770418664;0.15933477410894037;-0.001630066970739885;0.00183274288266149;1.5589866545605466
21.0905921459198;0.4558831700268331;0.7580307254202703;1.1671333908812702;-2.330736059305727;-1.075406929775589;2.3419374049319845;0.8390953036424569;-0.0206422063989821;0.48920037129652394;0.15060983778830972;-0.0033446610473269046;0.003438810349612382;1.571093174134124
21.15974760055542;0.626347209923102;0.9081513218491528;0.9367109185401841;-2.250063999267333;-1.2877097220259959;2.4225680941484753;0.9559498160452904;-0.020618788808883445;0.48936103664213687;0.06768628193280678;-0.0021908282948646393;0.0023017169317793417;1.5709191830422469
21.235095500946045;0.6071214144671435;0.8884032904049421;0.9785964202522317;-2.2692297481574104;-1.2561272753318145;2.4027180390562504;0.9374777630021915;-0.02124205072007932;0.48887860074796174;0.08403950624693274;-0.003678234065703419;0.003857932281293634;1.5712485910267562
21.295974016189575;0.44067007443825323;0.7749164537234421;1.1952406626971772;-2.33034419085791;-1.0851373560636999;2.3182898382792523;0.8435406497108975;-0.020427268423502665;0.48962260320172285;0.15924839517956485;-0.0016396257672089073;0.001706202551594521;1.5710731241672253

21.370867252349854;0.4366565977784598;0.7755635439505695;1.1978265343894172;-2.330497365290144;-1.0850553333822468;2.3164748259728065;0.8436484191032858;-0.020417915786187398;0.4896178125315521;0.15943378610545023;-0.0016715616693055118;0.0017158886383010542;1.5710641245314123
21.43694567680359;0.34414788926510376;0.7480096661136066;1.2261210893252237;-2.4113894918335426;-1.0957923339592313;2.360465516923406;0.8838900437075745;0.020134704373948695;0.45695578150856025;0.15777813312801864;-0.0027253595252895997;0.003253100161326481;1.4672702827449018
21.509483098983765;-0.5781983538351723;0.5379275123976921;1.4203168925577838;-2.7841949863553523;-1.1388255843527144;2.557942489367565;0.833638377661464;0.2371212442142115;0.2849537968744803;0.15120110737450088;-0.00016478920721131152;0.0018420185647058294;0.9166684263846496
21.57517385482788;-1.06729893086629;0.6214022862125184;1.1577346158712798;-2.475676024936865;-1.0566739893096813;2.4668272356353533;0.6299821827894299;0.5038286904563445;0.0752735728573266;0.14241156371190827;0.0016205626387478863;0.0022305384392894818;0.24182267448423253
21.64834213256836;-0.9893104548246798;0.7915732049442301;0.9849446739798466;-2.1165579209340875;-0.9793045583619504;2.347822568502984;0.6271462664783698;0.5988861886754931;0.0010307287871068685;0.1388509971398256;0.0025643066139143067;0.00244482371841502;0.0016674407520908376
21.72304105758667;-0.9709724207808001;0.834991256116671;0.9494296796806481;-2.0973080935583805;-1.0184887346535314;2.362197295511726;0.6483323599765929;0.5988014133757686;0.0010437579230178906;0.11416268173961554;0.004461392809155232;0.004852038890488383;0.0005152056604833962
21.787139415740967;-0.8611426833427087;0.9749022330723127;0.8089081408088887;-2.0204744767458713;-1.1593502138618828;2.433238691827459;0.7206418053465811;0.5990856477975047;0.0008710316825798377;0.04661532787575162;0.0028102467382934873;0.0030190380433042915;0.0002002384522846109
21.85565757751465;-0.916802087619784;0.9019110822323304;0.8975527841236008;-2.0689954148870036;-1.0932380657161227;2.3764984128175684;0.6809036415810183;0.5987943570500074;0.0013131999877451766;0.09626977197948114;0.0035636049293047796;0.003866908103171507;0.0005997285544720162
21.9200336933136;-1.0083096104783014;0.824692513121986;1.0087188615670435;-2.106659394894203;-1.0096787850111655;2.3236549644362943;0.6432468024890698;0.5985616298735711;0.0014002634951772136;0.1376595993540874;0.004762109525011278;0.00496332453133786;0.0011487597923929304
21.988092184066772;-1.069481899762029;0.7458579539406869;1.0873016698527378;-2.3457435420298722;-1.0708186056617501;2.4003505244006744;0.6738160075914732;0.5256835428756557;0.05011458610638456;0.14011149553328084;0.003758987019247172;0.0044451955039391455;0.167259307554204
22.056033611297607;-1.0275594697853796;0.5315787728586994;1.5044977224555085;-2.885595447476482;-1.2161986552214472;2.578232165262055;1.0220127562400805;0.2200033265112302;0.25208881992439464;0.14949952552760964;0.0014492106473085497;0.0022987729360815765;0.7435611386212089
22.120232105255127;0.38823144040692226;0.6988050648453545;1.2275755716036363;-2.4610650895573807;-1.0872060759558;2.370758161838577;1.2318126976528694;-0.07825002190337561;0.4516958884944101;0.15623482052428672;-0.0024019123867755157;0.0022746208000239045;1.3576378907810467
22.19180130958557;0.9222790785741433;0.9209059895329252;1.1224175002789822;-2.0253873717277457;-1.0728258865611755;2.181964974565685;1.0797202218008302;-0.1961862490318847;0.5315929969736634;0.1585949662956168;-0.0033913133124411437;0.0012844573663725917;1.563057300392444
22.26131010055542;0.9576439858287307;0.9598506073559854;1.1091506408885587;-1.9975841594368475;-1.0937550738112272;2.183324756378109;1.0844475546925043;-0.2003687741160188;0.533654085035997;0.14490377169495278;-0.006419435103618059;0.0022786893095427772;1.571112844098429
22.33256983757019;1.0499977338815842;1.091292668905103;0.9666962011371414;-1.9327990540300237;-1.2339552541439938;2.2606031985197506;1.1372001890741705;-0.20045209170279016;0.5339350859489782;0.06675176370266392;-0.0037571450125637464;0.0016021252536173802;1.5709820845814875
22.404398679733276;1.0028739304989234;1.0470773425468867;1.0371120405023886;-1.966068318512935;-1.1800436209795384;2.20724359370294;1.116638254596734;-0.2007860532040273;0.5335538460337503;0.11640786786891243;-0.004785382739126424;0.002195778886120727;1.5714043416350216
22.477752923965454;0.9311090029732707;0.976153235353264;1.15100768186141;-1.9975075919259888;-1.1115383368426643;2.1427984919925307;1.0884586308342001;-0.20035258924028013;0.534285982377646;0.15876084443761088;-0.003302254849435298;0.001332156095745062;1.5711361707479305

22.55604839324951;0.9310123915564823;0.976253724828732;1.1510604128369577;-1.997506765728006;-1.1115681637450026;2.1427493392448893;1.0884625059073807;-0.20035260345190603;0.534285787180392;0.15876345275309722;-0.0033032664432006897;0.0013320156476744303;1.5711364466937232
22.632261037826538;0.8492924961160941;0.9510894695245184;1.1756023243573965;-2.1046139984698433;-1.1294479837943525;2.185923705659824;1.1562579282801506;-0.15667850360214763;0.5042779569766839;0.15688212184296418;-0.005850777169283722;0.002794105544392211;1.4847693665168715
22.703470706939697;0.021643765897333633;0.6834510685251325;1.39358642236831;-2.715638540280171;-1.2103612545569717;2.4532804742120438;1.2818941543076798;0.06296734208012641;0.35372679788288525;0.1521979650532328;-0.0027209440747266852;0.0022678615234193573;1.05377387956333
22.780315399169922;-1.189501835107845;0.6778436733800373;1.3300970862332777;-2.6797926206072473;-1.2198506446731043;2.4314251749439193;0.7839675703519551;0.4106064971982446;0.1252722867020884;0.14431597028095394;0.000839905522575257;0.0017865731655580645;0.3357448999974699
22.852078437805176;-1.0848037625509717;0.8681384378461443;1.089895337730658;-2.1567210245557202;-1.0944259082785814;2.2781034327526655;0.6817613335441948;0.5905102204092694;0.0067069475987554155;0.13937394678066994;0.0027165550349216665;0.0019665983010868364;0.018094091273883645
22.922901153564453;-1.0615381546818847;0.9053724806167489;1.0723952865840323;-2.095420904316704;-1.0979165408495577;2.261158038848791;0.6841241514674028;0.5990125439891086;0.001351598756284665;0.13519122041167886;0.005200154212531328;0.004215298033177005;0.0006848432205896061
22.990598440170288;-0.9517542449538903;1.0451433121544715;0.9101791978217708;-2.0160045771649164;-1.255091493202868;2.3413125049450088;0.7558397190350434;0.5991535769206917;0.0008811283717516931;0.048981885331686556;0.0029989646797394117;0.002858765666766872;0.00021220160890857143
23.064544200897217;-0.9644199275799465;1.0457990148014051;0.9312710943576841;-2.025432826764715;-1.242297513616788;2.321209806108746;0.74858363875701;0.5986673588487683;0.0016444533662847696;0.06899155701778366;0.004767868318646187;0.0042960228244140145;0.0005327656700966269
23.12955355644226;-1.0813065293683515;0.9263948164170994;1.101099603925559;-2.0935530126249136;-1.1223138905112737;2.232942194447635;0.6944982757363021;0.5994807997920394;0.000629560215120691;0.13888453557369357;0.0024227050992992665;0.002296454264253742;0.00031117312447797766
23.20234179496765;-1.1237911945174162;0.898866753957507;1.1431589930582708;-2.233055803591937;-1.1630715697697775;2.2629979897811827;0.7136008365851714;0.5575791466411825;0.03059526241487314;0.13941607789629004;0.004490593158122461;0.004082891470837518;0.08694781728607015
23.274675607681274;-1.1723880043205126;0.7633193730408134;1.3776103589375674;-2.7435786802003657;-1.3192225427434856;2.373166401885136;0.9078741683162583;0.3249969517619226;0.19382098905832681;0.14701669196607742;0.0022125817779309353;0.0021125437920252697;0.6131758858142341
23.346726894378662;0.14559790638928805;0.8498355014753809;1.3475601564670416;-2.543410722331889;-1.2527839727949042;2.2523535702564574;1.2486197688285516;-0.02602487440581841;0.4420639424443821;0.15625336135637763;-0.0010651876086733222;0.0027451659658855715;1.2999655578736837
23.418212890625;0.7449640838035223;1.035697907522442;1.236656648207842;-2.0733510611444217;-1.2070239584081248;2.085850181684094;1.0747952410664459;-0.15149970617745367;0.5317314925314076;0.15890481475161713;-0.0027951960660912035;0.0016721889716735964;1.5660615161856715
23.485776662826538;0.7803496376701311;1.0704744721709973;1.214293241817832;-2.0461947217545866;-1.2352926769058703;2.086917746682939;1.0777694206215491;-0.15550712504551997;0.5339143019440145;0.14550766290757872;-0.005367495931982004;0.003154797797811399;1.5710132418909857
23.545088291168213;0.8657004226339202;1.1924650709905968;1.0750400538608993;-1.9851221604661586;-1.3742424401178948;2.1601799235615897;1.1218011673653345;-0.15555548600319832;0.5341674027815102;0.06700759533167287;-0.003035394982507508;0.002053399448307515;1.5708946291269767
23.610742807388306;0.8366034631144457;1.1703604348562573;1.1342625587100406;-2.017947685800471;-1.3264241616763224;2.10571971291667;1.1043280019681667;-0.1559640063034157;0.5338010424205416;0.10984617315459902;-0.003775525519211919;0.0028419648417092576;1.5712696940430575
23.684210300445557;0.7578149184979122;1.0958809218894618;1.2632656677353786;-2.0483672801671915;-1.2462487417805965;2.0401290717408287;1.0809178941720559;-0.1554145292909124;0.5344470735749148;0.15905636983168098;-0.0026904592617775585;0.0017430346049106323;1.5710589864420377

23.75180459022522;0.7577354432074603;1.0959263726819275;1.2633163465540056;-2.0483667571383997;-1.2462595026104806;2.040109018336931;1.0809209904134276;-0.1554145024793565;0.5344469719166447;0.1590590731727482;-0.0026910261402780357;0.0017427269195983523;1.5710591880383584
23.823045015335083;0.6953449829823608;1.0834635619494515;1.2803592342890626;-2.1246575320311236;-1.2612095824548613;2.054491720876248;1.1339376725989476;-0.12845162772990762;0.5146697706218566;0.15770341019750606;-0.004828315007459753;0.003584093228157433;1.5142753560492537
23.890434980392456;-0.11906980502380948;0.9224227070445021;1.4135737083520654;-2.6929490540332646;-1.3636773555397346;2.2182389221912384;1.2655226274619888;0.09495256705207028;0.35418975549701326;0.15282087856779886;-0.00094575612430456;0.0025446507889336214;1.0079598430837544
23.96442222595215;-1.2221795600091374;0.8853974831894327;1.363826571070847;-2.6330887222618715;-1.3440609002225115;2.2458425218546196;0.8268727706213905;0.4214328020812711;0.12545296650893456;0.14460216668174986;0.0012465096311938192;0.001158748926569299;0.3701369628834348
24.036824226379395;-1.1670707444531905;1.0095070899766396;1.198210314832063;-2.1396496810377315;-1.2311755495887038;2.15380589290579;0.7363242310272318;0.5877911798934887;0.008985046988817061;0.13962181455574338;0.00270009095602071;0.0016128371301357745;0.024867598668814807
24.1077139377594;-1.1405376998520422;1.04460826713722;1.1833050348819265;-2.0828270403273823;-1.2331008543215125;2.135499946655406;0.7365927468790461;0.5991936817710466;0.0012517586908046938;0.1332157559565626;0.0052576731620487;0.0035573978255870743;0.0005104712260181791
24.1808500289917;-1.0503120355004478;1.1652468754170275;1.0301433172940104;-2.010243343184696;-1.3787491625189467;2.211037979105233;0.7863820204837255;0.5992409784322485;0.0008762767889019239;0.053823693537464426;0.00308710728356732;0.0024959865623595495;0.00016529988801611688
24.245113849639893;-1.0458982643052783;1.185805060596425;1.0327444930925624;-2.007641445075606;-1.3852461804811478;2.2010570870415602;0.7877942285144623;0.5988424753830952;0.0017288345218666418;0.05845196890056957;0.005342167353976259;0.0038733850715785196;0.00037468934993911636
24.321399450302124;-1.1535058697410703;1.0777358074151069;1.2037679707930993;-2.080013309038869;-1.260451461474971;2.1015461236103996;0.745164738437122;0.5995887280672189;0.0006369007521237429;0.13888810263410378;0.002507189712437154;0.0019035812479804009;0.00027279416817393407
24.402188062667847;-1.1777404612151292;1.0728864008795247;1.2330100744032055;-2.168064207184493;-1.2870185973865977;2.109681233089666;0.7588531000795191;0.5673226178589111;0.025225051184386196;0.13943645279817746;0.0046944258755370226;0.003395974390768827;0.08679885453412352
24.485408782958984;-1.201631535233913;0.9932513844440418;1.3980076787071152;-2.6940415781399034;-1.4303043278375656;2.1582399142137194;0.9184928113914035;0.3223732937217106;0.20815034547741798;0.14782078639993557;0.0027765606279702604;0.001737024874536629;0.6127067263834584
24.559800624847412;-0.21503117432753927;1.0614338632235185;1.421312285055314;-2.5704735674730186;-1.4063243426316072;2.0729518772363726;1.2214007698476328;0.040341472966650485;0.4205461815689431;0.15578278600495366;0.00031882766587478575;0.0028406899203284;1.2351035540616648
24.647953033447266;0.5389797940162433;1.1889123429176838;1.3458386313484754;-2.143132339525989;-1.349239060524578;1.9563351837104475;1.0668002112807713;-0.09944059605769946;0.5262395616223273;0.1590289197485119;-0.0020161945574199;0.002158075578200415;1.5465497614446058
24.715935945510864;0.6103775442161714;1.2159824260890835;1.3439775932496483;-2.0906004917176775;-1.3535599328910664;1.9390644937231385;1.0483030058569698;-0.1106562390407342;0.5342238355035391;0.1571592582771923;-0.004272022867520015;0.004061461004760284;1.5708297356778198
24.79241681098938;0.6720756845052094;1.310423239837733;1.1997740154424603;-2.039403160155053;-1.4952140903140076;2.0158053229081005;1.0787116891408273;-0.11053507168286285;0.5342537693805047;0.07780583114413797;-0.0027961721968421827;0.0023518619652556625;1.5708194598779897
24.86751961708069;0.6810626169078344;1.3406567713520063;1.1914174197791194;-2.031525630115346;-1.5154107164575654;2.0145204585759826;1.0816407045710656;-0.11125187552306182;0.5338137452290618;0.06934506368627455;-0.004415128039953857;0.0044654569190486085;1.5708544547098664
24.935152530670166;0.6293527992109356;1.2787654897007936;1.3104004448545385;-2.0775655959787733;-1.4166550561148519;1.930243580273062;1.0619430651050399;-0.1106928322406558;0.5344705550811206;0.1432388454248043;-0.002130359502262704;0.0025793218378401895;1.571053952869586
25.00814938545227;0.5996827850422095;1.2604020144406984;1.3696365448959202;-2.088603734554855;-1.3873316032314076;1.8968889571719507;1.0549879412795011;-0.11043892606025282;0.5346111426167179;0.1592860397641282;-0.0021251974628746268;0.0020501023455655;1.5709323332562504

25.080907106399536;0.5996634020125762;1.2604560199717847;1.369683613966914;-2.0886038095012602;-1.387342174095827;1.8968665232215098;1.0549897262206986;-0.11043888142513175;0.5346111392291503;0.15928700480192892;-0.002125273105767452;0.0020498608312628282;1.5709323548566356
25.15254235267639;0.5393811916741198;1.261807354904679;1.379074580541781;-2.141875005161534;-1.399145693998868;1.90066416565507;1.0936212011894524;-0.09060572215359813;0.5191254663643753;0.15823808597063274;-0.003798647908959716;0.004164894903128095;1.5262298923530484
25.233513593673706;-0.08452854593596948;1.1859147311774123;1.433640676466906;-2.605908022024985;-1.4713074674324265;1.9825182133561783;1.2331328014315437;0.08976049991503315;0.3816561915700652;0.15410577220963184;-0.0007629919923812011;0.003282528048066571;1.1255554533017915
25.310631036758423;-1.172031362832504;1.1217159924552247;1.4321703890217483;-2.688797932886179;-1.4916266681034207;2.037251644684487;0.8885292538620542;0.38077052564735;0.16397191359705912;0.14634649368398467;0.0015024245853709393;0.0007778396133766705;0.44405238561531923
25.387524843215942;-1.243397551577833;1.1897190782835647;1.315750867363933;-2.179830982504461;-1.3873020273572916;1.9926577604078881;0.7834829527050413;0.5747025116816198;0.019291903704551784;0.1402243819942074;0.0025782511136796292;0.0012411043802185082;0.055342343017078355
25.459933042526245;-1.2091934636121726;1.2286191589844275;1.2995383502191027;-2.0723284128491937;-1.3774486695897439;1.9681063280958293;0.775819190243551;0.5994191091255194;0.0011467502344340633;0.13806244320782185;0.005301632737368396;0.0028818441682947724;0.00022897988117531406
25.53304362297058;-1.156293863178699;1.322187682006204;1.176647886010965;-2.019868323952306;-1.5093076348008996;2.0381492355855424;0.8027499957898856;0.5993333430828574;0.0008475217004990465;0.06247146313462562;0.0032820556377545617;0.0023964085753422205;0.00010695259041374784
25.598621129989624;-1.1350699155252428;1.359730472909912;1.1460106578670173;-1.9970544292831023;-1.5389690359406005;2.0459952175135587;0.806881094145341;0.5990548361477582;0.001678286164935704;0.046902873284691324;0.005628827644410647;0.0034104520242611946;6.71913324355759e-05
25.661262035369873;-1.190811813399069;1.2942850949233131;1.2674120417704051;-2.0551830649231966;-1.450798222240281;1.9585054830367534;0.7887426318558464;0.5995749233124306;0.0009753505020131132;0.11747826477840242;0.0032875075467230343;0.0015805028272251763;0.00030032688938349666
25.724875926971436;-1.2225442986488941;1.2771665971631307;1.3259918165610012;-2.070701729720298;-1.4139960999652326;1.9243227470198883;0.7823224995162743;0.5988257914776657;0.0016294786482861294;0.13854040843780813;0.005242251161972265;0.003026236654607766;0.0016102542936710948
25.794012308120728;-1.2679744094312815;1.2672374887365478;1.3571962574634062;-2.270187676510001;-1.4570241979220375;1.9287182611059688;0.8026712167085659;0.5290185765669004;0.057583058147435015;0.14123986940284614;0.004402119229333705;0.002480099566512254;0.19107207033616183
25.86377739906311;-1.089152959946146;1.2473472608690965;1.4423382605913417;-2.7294288243022136;-1.5522064022338862;1.9179881388321007;0.9929464965770647;0.2849137781148491;0.252321827172596;0.14970054140519962;0.002931130714774378;0.0015492249567412863;0.7418033032222978
25.930237531661987;-0.05155727888563266;1.333371779261057;1.449655689742662;-2.460687581293601;-1.5162874974142557;1.830593028702558;1.1376039177232578;0.036434287178920624;0.4526138653553003;0.15697748977769;0.0002428085232019992;0.002757747512907231;1.3287329382723183
25.995076417922974;0.44069926967908213;1.3983330261016311;1.441570486154089;-2.139096531870514;-1.4916923521387924;1.774386277083115;1.0049758345710478;-0.06330299900962849;0.533087025077033;0.159413480450448;-0.0016232367756142446;0.0023009571405764283;1.5658404227884943
26.065444231033325;0.47161813607995207;1.42336484043809;1.4231805836375333;-2.117394392192532;-1.5291584740323998;1.7809962125677954;1.0048558116214075;-0.06559366403278445;0.5344313712594042;0.14126311744153208;-0.0033094895173926817;0.004020388442758149;1.5705586869527621
26.1358163356781;0.5131848156088679;1.5151117828985337;1.2855814313570777;-2.0659899086371434;-1.6586497917526852;1.8516970662018029;1.0130202617217003;-0.06555879736310596;0.5346001336577768;0.0678807161845419;-0.0017789503875268477;0.0024175030765081007;1.5705656154426997
26.195254802703857;0.5037345913733478;1.5163613354381544;1.3202033733882628;-2.080976699064057;-1.6307525705551278;1.8156695620835013;1.0112411323542663;-0.06602930302477317;0.5344372177157416;0.09682305708504788;-0.002414293786899906;0.004046072919990683;1.570649198597011
